; generated by PrusaSlicer 2.5.0+linux-x64-GTK3 on 2022-09-17 at 20:30:44 UTC

; 

; external perimeters extrusion width = 0.45mm
; perimeters extrusion width = 0.45mm
; infill extrusion width = 0.45mm
; solid infill extrusion width = 0.45mm
; top infill extrusion width = 0.40mm
; first layer extrusion width = 0.42mm

M73 P0 R68
M73 Q0 S68
M201 X1000 Y1000 Z200 E5000 ; sets maximum accelerations, mm/sec^2
M203 X200 Y200 Z12 E120 ; sets maximum feedrates, mm / sec
M204 P1250 R1250 T1250 ; sets acceleration (P, T) and retract acceleration (R), mm/sec^2
M205 X8.00 Y8.00 Z0.40 E4.50 ; sets the jerk limits, mm/sec
M205 S0 T0 ; sets the minimum extruding and travel feed rate, mm/sec
M107
;TYPE:Custom
M862.3 P "MK3S" ; printer model check
M862.1 P0.4 ; nozzle diameter check
M115 U3.11.0 ; tell printer latest fw version
G90 ; use absolute coordinates
M83 ; extruder relative mode
M104 S240 ; set extruder temp
M140 S85 ; set bed temp
M190 S85 ; wait for bed temp
M109 S240 ; wait for extruder temp
G28 W ; home all without mesh bed level
G80 ; mesh bed leveling

G1 Z0.2 F720
G1 Y-3 F1000 ; go outside print area
G92 E0
G1 X60 E9 F1000 ; intro line
G1 X100 E12.5 F1000 ; intro line

G92 E0
M221 S95

; Don't change E values below. Excessive value can damage the printer.
M907 E430 ; set extruder motor current
G21 ; set units to millimeters
G90 ; use absolute coordinates
M83 ; use relative distances for extrusion
M900 K0.08 ; Filament gcode LA 1.5
M900 K45 ; Filament gcode LA 1.0
M107
;LAYER_CHANGE
;Z:0.2
;HEIGHT:0.2
;BEFORE_LAYER_CHANGE
G92 E0.0
;0.2


G1 E-1 F2100
G1 Z.2 F720
;AFTER_LAYER_CHANGE
;0.2
G1 Z.4
G1 X76.819 Y80.134 F10800
G1 Z.2 F720
G1 E1 F2100
M204 S800
;TYPE:Skirt/Brim
;WIDTH:0.42
G1 F1200
G1 X78.5 Y79.438 E.05704
G1 X171.5 Y79.438 E2.91595
G1 X173.181 Y80.134 E.05704
G1 X173.616 Y80.569 E.01929
G1 X174.312 Y82.25 E.05704
G1 X174.312 Y127.75 E1.42662
G1 X173.616 Y129.431 E.05704
G1 X173.181 Y129.866 E.01929
G1 X171.5 Y130.562 E.05704
G1 X78.5 Y130.562 E2.91595
G1 X76.819 Y129.866 E.05704
G1 X76.384 Y129.431 E.01929
G1 X75.688 Y127.75 E.05704
G1 X75.688 Y82.25 E1.42662
G1 X76.384 Y80.569 E.05704
G1 X76.777 Y80.177 E.01741
M204 S1000
; printing object cubo_mounting_plate_vesa.stl id:0 copy 0
;WIPE_START
G1 F8640
G1 X78.5 Y79.438 E-.43292
G1 X80.739 Y79.438 E-.51708
;WIPE_END
G1 E-.05 F2100
G1 Z.4 F720
G1 X79.177 Y82.927 F10800
G1 Z.2 F720
G1 E1 F2100
M204 S800
;TYPE:Perimeter
;WIDTH:0.419999
G1 F1200
G1 X170.823 Y82.927 E2.87349
G1 X170.823 Y127.073 E1.38416
G1 X79.177 Y127.073 E2.87349
G1 X79.177 Y82.987 E1.38228
M204 S1000
M73 P0 R67
G1 X78.8 Y82.55 F10800
M204 S800
;TYPE:External perimeter
G1 F1200
G1 X171.2 Y82.55 E2.89713
G1 X171.2 Y127.45 E1.40781
G1 X78.8 Y127.45 E2.89713
M73 P1 R67
M73 Q1 S68
G1 X78.8 Y82.61 E1.40592
M204 S1000
G1 X79.195 Y82.61 F10800
;WIPE_START
M73 Q1 S67
G1 F8640
G1 X82.914 Y82.607 E-.95
;WIPE_END
G1 E-.05 F2100
G1 Z.4 F720
G1 X87.668 Y102.236 F10800
G1 Z.2 F720
G1 E1 F2100
M204 S800
;TYPE:Perimeter
G1 F1200
G1 X88.29 Y102.339 E.01976
G1 X88.927 Y102.619 E.02182
G1 X89.475 Y103.049 E.02182
G1 X89.898 Y103.601 E.02182
G1 X90.17 Y104.241 E.02182
G1 X90.275 Y104.929 E.02182
G1 X90.206 Y105.622 E.02182
G1 X89.966 Y106.275 E.02182
G1 X89.572 Y106.848 E.02182
G1 X89.047 Y107.305 E.02181
G1 X88.425 Y107.618 E.02182
G1 X87.745 Y107.765 E.02182
G1 X87.05 Y107.739 E.02182
G1 X86.383 Y107.541 E.02182
G1 X85.786 Y107.184 E.02182
G1 X85.296 Y106.689 E.02182
G1 X84.946 Y106.088 E.02182
G1 X84.756 Y105.418 E.02182
G1 X84.738 Y104.723 E.02182
G1 X84.894 Y104.044 E.02182
G1 X85.213 Y103.426 E.02182
G1 X85.676 Y102.907 E.02181
G1 X86.254 Y102.519 E.02182
G1 X86.91 Y102.287 E.02182
G1 X87.609 Y102.227 E.02199
M204 S1000
G1 X87.539 Y102.609 F10800
M204 S800
;TYPE:External perimeter
G1 F1200
G1 X87.627 Y102.602 E.00276
G1 X88.22 Y102.709 E.01887
G1 X88.767 Y102.96 E.01887
G1 X89.234 Y103.339 E.01887
G1 X89.593 Y103.823 E.01887
G1 X89.82 Y104.38 E.01887
G1 X89.901 Y104.976 E.01887
G1 X89.832 Y105.574 E.01887
G1 X89.616 Y106.136 E.01887
G1 X89.266 Y106.626 E.01887
G1 X88.807 Y107.015 E.01887
G1 X88.264 Y107.276 E.01887
G1 X87.674 Y107.395 E.01887
G1 X87.073 Y107.363 E.01887
G1 X86.499 Y107.183 E.01887
G1 X85.988 Y106.865 E.01887
G1 X85.571 Y106.43 E.01887
G1 X85.276 Y105.906 E.01887
G1 X85.121 Y105.324 E.01887
G1 X85.115 Y104.723 E.01887
G1 X85.259 Y104.138 E.01887
G1 X85.544 Y103.608 E.01887
G1 X85.951 Y103.165 E.01887
G1 X86.456 Y102.837 E.01888
G1 X87.027 Y102.646 E.01887
G1 X87.48 Y102.613 E.01423
M204 S1000
G1 X87.574 Y102.528 F10800
;WIPE_START
G1 F8640
G1 X87.627 Y102.602 E-.03419
G1 X88.22 Y102.709 E-.13898
G1 X88.767 Y102.96 E-.13899
G1 X89.234 Y103.339 E-.13898
G1 X89.593 Y103.823 E-.13898
G1 X89.82 Y104.38 E-.13899
G1 X89.901 Y104.976 E-.13898
G1 X89.86 Y105.329 E-.08191
;WIPE_END
G1 E-.05 F2100
G1 Z.4 F720
G1 X162.668 Y102.236 F10800
G1 Z.2 F720
G1 E1 F2100
M204 S800
;TYPE:Perimeter
G1 F1200
G1 X163.29 Y102.339 E.01976
G1 X163.927 Y102.619 E.02182
G1 X164.475 Y103.049 E.02182
G1 X164.898 Y103.601 E.02182
G1 X165.17 Y104.241 E.02182
G1 X165.275 Y104.929 E.02182
G1 X165.206 Y105.622 E.02182
G1 X164.966 Y106.275 E.02182
G1 X164.572 Y106.848 E.02182
G1 X164.047 Y107.305 E.02181
G1 X163.425 Y107.618 E.02182
G1 X162.745 Y107.765 E.02182
G1 X162.05 Y107.739 E.02182
G1 X161.383 Y107.541 E.02182
G1 X160.786 Y107.184 E.02182
G1 X160.296 Y106.689 E.02182
G1 X159.946 Y106.088 E.02182
G1 X159.756 Y105.418 E.02182
G1 X159.738 Y104.723 E.02182
G1 X159.894 Y104.044 E.02182
G1 X160.213 Y103.426 E.02182
G1 X160.676 Y102.907 E.02181
G1 X161.254 Y102.519 E.02182
G1 X161.91 Y102.287 E.02182
G1 X162.609 Y102.227 E.02199
M204 S1000
G1 X162.533 Y102.609 F10800
M204 S800
;TYPE:External perimeter
G1 F1200
G1 X162.627 Y102.602 E.00297
G1 X163.22 Y102.709 E.01887
G1 X163.767 Y102.96 E.01887
G1 X164.234 Y103.339 E.01887
G1 X164.593 Y103.823 E.01887
G1 X164.82 Y104.38 E.01887
G1 X164.901 Y104.976 E.01887
G1 X164.832 Y105.574 E.01887
G1 X164.616 Y106.136 E.01887
G1 X164.266 Y106.626 E.01887
G1 X163.807 Y107.015 E.01887
G1 X163.264 Y107.276 E.01887
G1 X162.674 Y107.395 E.01887
G1 X162.073 Y107.363 E.01887
G1 X161.499 Y107.183 E.01887
G1 X160.988 Y106.865 E.01887
G1 X160.571 Y106.43 E.01887
G1 X160.276 Y105.906 E.01887
G1 X160.121 Y105.324 E.01887
G1 X160.115 Y104.723 E.01887
G1 X160.259 Y104.138 E.01887
G1 X160.544 Y103.608 E.01887
G1 X160.951 Y103.165 E.01887
G1 X161.456 Y102.837 E.01888
G1 X162.027 Y102.646 E.01887
G1 X162.473 Y102.613 E.01402
M204 S1000
G1 X162.57 Y102.522 F10800
;WIPE_START
G1 F8640
G1 X162.627 Y102.602 E-.03575
G1 X163.22 Y102.709 E-.13898
G1 X163.767 Y102.96 E-.13899
G1 X164.234 Y103.339 E-.13898
G1 X164.593 Y103.823 E-.13898
G1 X164.82 Y104.38 E-.13899
G1 X164.901 Y104.976 E-.13898
G1 X164.861 Y105.322 E-.08035
;WIPE_END
G1 E-.05 F2100
G1 Z.4 F720
G1 X170.71 Y83.805 F10800
G1 Z.2 F720
G1 E1 F2100
M204 S800
;TYPE:Solid infill
;WIDTH:0.421388
G1 F1200
G1 X170.114 Y83.21 E.0265
G1 X169.579 Y83.21 E.01684
G1 X170.54 Y84.171 E.04277
G1 X170.54 Y84.706 E.01684
G1 X169.044 Y83.21 E.06659
G1 X168.509 Y83.21 E.01684
G1 X170.54 Y85.241 E.09041
G1 X170.54 Y85.777 E.01684
G1 X167.973 Y83.21 E.11423
G1 X167.438 Y83.21 E.01684
G1 X170.54 Y86.312 E.13806
G1 X170.54 Y86.847 E.01684
G1 X166.903 Y83.21 E.16188
G1 X166.368 Y83.21 E.01684
G1 X170.54 Y87.382 E.1857
G1 X170.54 Y87.918 E.01684
G1 X165.832 Y83.21 E.20952
G1 X165.297 Y83.21 E.01684
G1 X170.54 Y88.453 E.23334
G1 X170.54 Y88.988 E.01684
G1 X164.762 Y83.21 E.25716
G1 X164.227 Y83.21 E.01684
G1 X170.54 Y89.523 E.28098
G1 X170.54 Y90.059 E.01684
G1 X163.691 Y83.21 E.3048
G1 X163.156 Y83.21 E.01684
G1 X170.54 Y90.594 E.32862
G1 X170.54 Y91.129 E.01684
G1 X162.621 Y83.21 E.35244
G1 X162.086 Y83.21 E.01684
G1 X170.54 Y91.664 E.37626
G1 X170.54 Y92.199 E.01684
G1 X161.551 Y83.21 E.40008
G1 X161.015 Y83.21 E.01684
G1 X170.54 Y92.735 E.4239
G1 X170.54 Y93.27 E.01684
G1 X160.48 Y83.21 E.44772
G1 X159.945 Y83.21 E.01684
G1 X170.54 Y93.805 E.47154
G1 X170.54 Y94.34 E.01684
G1 X159.41 Y83.21 E.49536
G1 X158.874 Y83.21 E.01684
G1 X170.54 Y94.876 E.51918
G1 X170.54 Y95.411 E.01684
G1 X158.339 Y83.21 E.54301
G1 X157.804 Y83.21 E.01684
G1 X170.54 Y95.946 E.56683
G1 X170.54 Y96.481 E.01684
G1 X157.269 Y83.21 E.59065
G1 X156.733 Y83.21 E.01684
G1 X170.54 Y97.017 E.61447
G1 X170.54 Y97.552 E.01684
G1 X156.198 Y83.21 E.63829
G1 X155.663 Y83.21 E.01684
G1 X170.54 Y98.087 E.66211
G1 X170.54 Y98.622 E.01684
G1 X155.128 Y83.21 E.68593
G1 X154.592 Y83.21 E.01684
G1 X170.54 Y99.158 E.70975
G1 X170.54 Y99.693 E.01684
G1 X154.057 Y83.21 E.73357
G1 X153.522 Y83.21 E.01684
G1 X170.54 Y100.228 E.75739
G1 X170.54 Y100.763 E.01684
G1 X152.987 Y83.21 E.78121
G1 X152.452 Y83.21 E.01684
G1 X170.54 Y101.298 E.80503
G1 X170.54 Y101.834 E.01684
G1 X151.916 Y83.21 E.82885
G1 X151.381 Y83.21 E.01684
G1 X170.54 Y102.369 E.85267
G1 X170.54 Y102.904 E.01684
G1 X150.846 Y83.21 E.87649
G1 X150.311 Y83.21 E.01684
M73 P2 R67
M73 Q2 S67
G1 X170.54 Y103.439 E.90031
G1 X170.54 Y103.975 E.01684
G1 X149.775 Y83.21 E.92413
G1 X149.24 Y83.21 E.01684
G1 X170.54 Y104.51 E.94795
G1 X170.54 Y105.045 E.01684
G1 X148.705 Y83.21 E.97178
G1 X148.17 Y83.21 E.01684
G1 X170.54 Y105.58 E.9956
G1 X170.54 Y106.116 E.01684
M73 P2 R66
G1 X147.634 Y83.21 E1.01942
G1 X147.099 Y83.21 E.01684
G1 X170.54 Y106.651 E1.04324
G1 X170.54 Y107.186 E.01684
G1 X146.564 Y83.21 E1.06706
G1 X146.029 Y83.21 E.01684
G1 X170.54 Y107.721 E1.09088
G1 X170.54 Y108.257 E.01684
G1 X145.493 Y83.21 E1.1147
G1 X144.958 Y83.21 E.01684
G1 X170.54 Y108.792 E1.13852
G1 X170.54 Y109.327 E.01684
G1 X165.463 Y104.25 E.22595
G1 X165.548 Y104.87 E.01969
G1 X170.54 Y109.862 E.22218
G1 X170.54 Y110.397 E.01684
G1 X165.519 Y105.376 E.22349
G1 X165.48 Y105.703 E.01037
G1 X165.434 Y105.826 E.00414
G1 X170.54 Y110.933 E.22725
G1 X170.54 Y111.468 E.01684
G1 X165.289 Y106.217 E.23369
G1 X165.227 Y106.384 E.00559
G1 X165.116 Y106.579 E.00709
G1 X170.54 Y112.003 E.24138
G1 X170.54 Y112.538 E.01684
G1 X164.891 Y106.889 E.25141
G1 X164.797 Y107.019 E.00505
G1 X164.644 Y107.178 E.00692
G1 X170.54 Y113.074 E.26239
G1 X170.54 Y113.609 E.01684
G1 X164.349 Y107.418 E.27554
G1 X164.139 Y107.588 E.00852
G1 X164.034 Y107.638 E.00364
G1 X170.54 Y114.144 E.28954
G1 X170.54 Y114.679 E.01684
G1 X163.673 Y107.812 E.30563
G1 X163.54 Y107.876 E.00463
G1 X163.276 Y107.951 E.00864
G1 X170.54 Y115.215 E.32328
G1 X170.54 Y115.75 E.01684
G1 X162.82 Y108.03 E.34357
G1 X162.655 Y108.059 E.00528
G1 X162.289 Y108.034 E.01153
G1 X170.71 Y116.455 E.37475
M204 S1000
;WIPE_START
G1 F8640
G1 X167.801 Y113.545 E-.95
;WIPE_END
G1 E-.05 F2100
G1 Z.4 F720
G1 X163.512 Y102.299 F10800
G1 Z.2 F720
M73 Q2 S66
G1 E1 F2100
M204 S800
G1 F1200
G1 X144.423 Y83.21 E.84955
G1 X143.888 Y83.21 E.01684
G1 X162.623 Y101.945 E.83381
G1 X162.119 Y101.976 E.01589
G1 X143.353 Y83.21 E.8352
G1 X142.817 Y83.21 E.01684
G1 X161.678 Y102.07 E.83938
G1 X161.272 Y102.2 E.0134
G1 X142.282 Y83.21 E.84515
G1 X141.747 Y83.21 E.01684
G1 X160.928 Y102.391 E.85366
G1 X160.604 Y102.602 E.01218
G1 X141.212 Y83.21 E.86304
G1 X140.676 Y83.21 E.01684
G1 X160.331 Y102.864 E.87473
G1 X160.074 Y103.143 E.01192
G1 X140.141 Y83.21 E.88713
G1 X139.606 Y83.21 E.01684
G1 X159.87 Y103.474 E.90185
G1 X159.679 Y103.819 E.0124
G1 X139.071 Y83.21 E.91719
G1 X138.535 Y83.21 E.01684
M73 P3 R66
M73 Q3 S66
G1 X159.559 Y104.233 E.93564
G1 X159.465 Y104.588 E.01157
G1 X159.464 Y104.673 E.00267
G1 X138 Y83.21 E.95523
G1 X137.465 Y83.21 E.01684
G1 X159.636 Y105.381 E.9867
M204 S1000
;WIPE_START
G1 F8640
G1 X156.726 Y102.471 E-.95
;WIPE_END
G1 E-.05 F2100
G1 Z.4 F720
G1 X170.71 Y116.99 F10800
G1 Z.2 F720
G1 E1 F2100
M204 S800
G1 F1200
G1 X161.637 Y107.917 E.40379
G1 X161.29 Y107.809 E.01144
G1 X161.107 Y107.723 E.00635
G1 X160.545 Y107.359 E.02108
G1 X160.02 Y106.798 E.02416
G1 X159.695 Y106.219 E.02091
G1 X159.576 Y105.856 E.01201
G1 X136.93 Y83.21 E1.00788
G1 X136.395 Y83.21 E.01684
G1 X170.54 Y117.356 E1.51965
G1 X170.54 Y117.891 E.01684
G1 X135.859 Y83.21 E1.54347
G1 X135.324 Y83.21 E.01684
G1 X170.54 Y118.426 E1.56729
G1 X170.54 Y118.961 E.01684
G1 X134.789 Y83.21 E1.59111
G1 X134.254 Y83.21 E.01684
G1 X170.54 Y119.496 E1.61493
G1 X170.54 Y120.032 E.01684
G1 X133.718 Y83.21 E1.63875
G1 X133.183 Y83.21 E.01684
G1 X170.54 Y120.567 E1.66257
G1 X170.54 Y121.102 E.01684
G1 X132.648 Y83.21 E1.68639
G1 X132.113 Y83.21 E.01684
M73 P3 R65
G1 X170.54 Y121.637 E1.71021
G1 X170.54 Y122.173 E.01684
G1 X131.577 Y83.21 E1.73403
G1 X131.042 Y83.21 E.01684
G1 X170.54 Y122.708 E1.75785
G1 X170.54 Y123.243 E.01684
G1 X130.507 Y83.21 E1.78168
G1 X129.972 Y83.21 E.01684
G1 X170.54 Y123.778 E1.8055
G1 X170.54 Y124.314 E.01684
M73 P4 R65
M73 Q4 S66
G1 X129.436 Y83.21 E1.82932
G1 X128.901 Y83.21 E.01684
M73 Q4 S65
G1 X170.54 Y124.849 E1.85314
G1 X170.54 Y125.384 E.01684
G1 X128.366 Y83.21 E1.87696
G1 X127.831 Y83.21 E.01684
G1 X170.54 Y125.919 E1.90078
G1 X170.54 Y126.454 E.01684
G1 X127.296 Y83.21 E1.9246
G1 X126.76 Y83.21 E.01684
G1 X170.341 Y126.79 E1.93954
G1 X169.805 Y126.79 E.01684
G1 X126.225 Y83.21 E1.93954
G1 X125.69 Y83.21 E.01684
G1 X169.27 Y126.79 E1.93954
G1 X168.735 Y126.79 E.01684
G1 X125.155 Y83.21 E1.93954
G1 X124.619 Y83.21 E.01684
G1 X168.2 Y126.79 E1.93954
G1 X167.664 Y126.79 E.01684
G1 X124.084 Y83.21 E1.93954
G1 X123.549 Y83.21 E.01684
G1 X167.129 Y126.79 E1.93954
G1 X166.594 Y126.79 E.01684
G1 X123.014 Y83.21 E1.93954
G1 X122.478 Y83.21 E.01684
M73 P5 R65
M73 Q5 S65
G1 X166.059 Y126.79 E1.93954
G1 X165.523 Y126.79 E.01684
G1 X121.943 Y83.21 E1.93954
G1 X121.408 Y83.21 E.01684
M73 P5 R64
G1 X164.988 Y126.79 E1.93954
G1 X164.453 Y126.79 E.01684
G1 X120.873 Y83.21 E1.93954
G1 X120.337 Y83.21 E.01684
G1 X163.918 Y126.79 E1.93954
G1 X163.382 Y126.79 E.01684
G1 X119.802 Y83.21 E1.93954
G1 X119.267 Y83.21 E.01684
G1 X162.847 Y126.79 E1.93954
G1 X162.312 Y126.79 E.01684
M73 Q5 S64
G1 X118.732 Y83.21 E1.93954
G1 X118.197 Y83.21 E.01684
G1 X161.777 Y126.79 E1.93954
G1 X161.242 Y126.79 E.01684
G1 X117.661 Y83.21 E1.93954
G1 X117.126 Y83.21 E.01684
G1 X160.706 Y126.79 E1.93954
G1 X160.171 Y126.79 E.01684
G1 X116.591 Y83.21 E1.93954
G1 X116.056 Y83.21 E.01684
G1 X159.636 Y126.79 E1.93954
G1 X159.101 Y126.79 E.01684
M73 P6 R64
G1 X115.52 Y83.21 E1.93954
G1 X114.985 Y83.21 E.01684
M73 Q6 S64
G1 X158.565 Y126.79 E1.93954
G1 X158.03 Y126.79 E.01684
G1 X114.45 Y83.21 E1.93954
G1 X113.915 Y83.21 E.01684
G1 X157.495 Y126.79 E1.93954
G1 X156.96 Y126.79 E.01684
G1 X113.379 Y83.21 E1.93954
G1 X112.844 Y83.21 E.01684
G1 X156.424 Y126.79 E1.93954
G1 X155.889 Y126.79 E.01684
G1 X112.309 Y83.21 E1.93954
G1 X111.774 Y83.21 E.01684
G1 X155.354 Y126.79 E1.93954
G1 X154.819 Y126.79 E.01684
M73 P6 R63
G1 X111.238 Y83.21 E1.93954
G1 X110.703 Y83.21 E.01684
G1 X154.283 Y126.79 E1.93954
G1 X153.748 Y126.79 E.01684
G1 X110.168 Y83.21 E1.93954
G1 X109.633 Y83.21 E.01684
G1 X153.213 Y126.79 E1.93954
G1 X152.678 Y126.79 E.01684
G1 X109.098 Y83.21 E1.93954
G1 X108.562 Y83.21 E.01684
G1 X152.143 Y126.79 E1.93954
G1 X151.607 Y126.79 E.01684
M73 P7 R63
M73 Q7 S63
G1 X108.027 Y83.21 E1.93954
G1 X107.492 Y83.21 E.01684
G1 X151.072 Y126.79 E1.93954
G1 X150.537 Y126.79 E.01684
G1 X106.957 Y83.21 E1.93954
G1 X106.421 Y83.21 E.01684
G1 X150.002 Y126.79 E1.93954
G1 X149.466 Y126.79 E.01684
G1 X105.886 Y83.21 E1.93954
G1 X105.351 Y83.21 E.01684
G1 X148.931 Y126.79 E1.93954
G1 X148.396 Y126.79 E.01684
G1 X104.816 Y83.21 E1.93954
G1 X104.28 Y83.21 E.01684
G1 X147.861 Y126.79 E1.93954
G1 X147.325 Y126.79 E.01684
G1 X103.745 Y83.21 E1.93954
G1 X103.21 Y83.21 E.01684
G1 X146.79 Y126.79 E1.93954
G1 X146.255 Y126.79 E.01684
G1 X102.675 Y83.21 E1.93954
G1 X102.139 Y83.21 E.01684
G1 X145.72 Y126.79 E1.93954
G1 X145.185 Y126.79 E.01684
G1 X101.604 Y83.21 E1.93954
G1 X101.069 Y83.21 E.01684
M73 P8 R62
M73 Q8 S63
G1 X144.649 Y126.79 E1.93954
G1 X144.114 Y126.79 E.01684
G1 X100.534 Y83.21 E1.93954
G1 X99.999 Y83.21 E.01684
G1 X143.579 Y126.79 E1.93954
G1 X143.044 Y126.79 E.01684
G1 X99.463 Y83.21 E1.93954
G1 X98.928 Y83.21 E.01684
G1 X142.508 Y126.79 E1.93954
G1 X141.973 Y126.79 E.01684
