; generated by PrusaSlicer 2.5.0+linux-x64-GTK3 on 2022-09-17 at 20:30:43 UTC

; 

; external perimeters extrusion width = 0.45mm
; perimeters extrusion width = 0.45mm
; infill extrusion width = 0.45mm
; solid infill extrusion width = 0.45mm
; top infill extrusion width = 0.40mm
; first layer extrusion width = 0.42mm

M73 P0 R10
M73 Q0 S10
M201 X1000 Y1000 Z200 E5000 ; sets maximum accelerations, mm/sec^2
M203 X200 Y200 Z12 E120 ; sets maximum feedrates, mm / sec
M204 P1250 R1250 T1250 ; sets acceleration (P, T) and retract acceleration (R), mm/sec^2
M205 X8.00 Y8.00 Z0.40 E4.50 ; sets the jerk limits, mm/sec
M205 S0 T0 ; sets the minimum extruding and travel feed rate, mm/sec
M107
;TYPE:Custom
M862.3 P "MK3S" ; printer model check
M862.1 P0.4 ; nozzle diameter check
M115 U3.11.0 ; tell printer latest fw version
G90 ; use absolute coordinates
M83 ; extruder relative mode
M104 S240 ; set extruder temp
M140 S85 ; set bed temp
M190 S85 ; wait for bed temp
M109 S240 ; wait for extruder temp
G28 W ; home all without mesh bed level
G80 ; mesh bed leveling

G1 Z0.2 F720
G1 Y-3 F1000 ; go outside print area
G92 E0
G1 X60 E9 F1000 ; intro line
G1 X100 E12.5 F1000 ; intro line

G92 E0
M221 S95

; Don't change E values below. Excessive value can damage the printer.
M907 E430 ; set extruder motor current
G21 ; set units to millimeters
G90 ; use absolute coordinates
M83 ; use relative distances for extrusion
M900 K0.08 ; Filament gcode LA 1.5
M900 K45 ; Filament gcode LA 1.0
M107
;LAYER_CHANGE
;Z:0.2
;HEIGHT:0.2
;BEFORE_LAYER_CHANGE
G92 E0.0
;0.2


G1 E-1 F2100
G1 Z.2 F720
;AFTER_LAYER_CHANGE
;0.2
G1 Z.4
G1 X113.375 Y96.064 F10800
G1 Z.2 F720
M73 P1 R10
M73 Q1 S10
G1 E1 F2100
M204 S800
;TYPE:Skirt/Brim
;WIDTH:0.42
G1 F1200
G1 X114.422 Y94.829 E.05075
G1 X115.513 Y93.804 E.04695
G1 X117.283 Y92.518 E.0686
G1 X118.909 Y91.649 E.05778
G1 X120.301 Y91.098 E.04696
G1 X122.42 Y90.554 E.0686
G1 X124.251 Y90.344 E.05778
G1 X126.094 Y90.366 E.05778
G1 X127.58 Y90.554 E.04696
G1 X129.37 Y90.991 E.05778
G1 X131.404 Y91.796 E.0686
G1 X132.717 Y92.518 E.04695
G1 X134.22 Y93.583 E.05778
G1 X135.815 Y95.081 E.0686
G1 X136.973 Y96.515 E.05778
G1 X137.942 Y98.082 E.05778
G1 X138.58 Y99.437 E.04696
G1 X139.17 Y101.183 E.05778
G1 X139.58 Y103.332 E.0686
G1 X139.674 Y104.827 E.04696
G1 X139.58 Y106.668 E.05778
G1 X139.17 Y108.817 E.0686
G1 X138.58 Y110.563 E.05778
G1 X137.942 Y111.918 E.04696
G1 X136.77 Y113.765 E.0686
G1 X135.578 Y115.171 E.05778
G1 X134.487 Y116.196 E.04695
G1 X132.717 Y117.482 E.0686
G1 X131.091 Y118.351 E.05778
G1 X129.699 Y118.902 E.04696
G1 X127.58 Y119.446 E.0686
G1 X125.749 Y119.656 E.05778
G1 X123.906 Y119.634 E.05778
G1 X122.42 Y119.446 E.04696
G1 X120.63 Y119.009 E.05778
G1 X118.596 Y118.204 E.0686
G1 X117.283 Y117.482 E.04695
G1 X115.78 Y116.417 E.05778
G1 X114.185 Y114.919 E.0686
G1 X113.027 Y113.485 E.05778
G1 X112.058 Y111.918 E.05778
G1 X111.42 Y110.563 E.04696
G1 X110.83 Y108.817 E.05778
G1 X110.42 Y106.668 E.0686
G1 X110.326 Y105.173 E.04696
G1 X110.42 Y103.332 E.05778
G1 X110.83 Y101.183 E.0686
G1 X111.42 Y99.437 E.05778
G1 X112.058 Y98.082 E.04696
G1 X113.23 Y96.235 E.0686
G1 X113.337 Y96.11 E.00515
M204 S1000
G1 X113.639 Y96.355 F10800
M204 S800
G1 F1200
G1 X114.475 Y95.322 E.04168
G1 X116.002 Y93.889 E.06564
G1 X117.213 Y93.008 E.04695
G1 X118.777 Y92.127 E.0563
G1 X120.724 Y91.356 E.06564
G1 X122.468 Y90.928 E.0563
G1 X123.953 Y90.74 E.04696
G1 X126.047 Y90.74 E.06563
G1 X127.532 Y90.928 E.04696
G1 X129.276 Y91.356 E.0563
G1 X131.223 Y92.127 E.06564
G1 X132.535 Y92.848 E.04695
M73 Q2 S10
G1 X133.998 Y93.889 E.0563
G1 X135.525 Y95.322 E.06564
G1 X136.655 Y96.717 E.0563
G1 X137.601 Y98.243 E.0563
M73 P2 R10
G1 X138.238 Y99.598 E.04696
G1 X138.811 Y101.3 E.0563
G1 X139.203 Y103.356 E.06564
G1 X139.297 Y104.851 E.04696
G1 X139.203 Y106.644 E.0563
G1 X138.811 Y108.7 E.06564
G1 X138.238 Y110.402 E.0563
G1 X137.601 Y111.757 E.04696
G1 X136.655 Y113.283 E.0563
G1 X135.525 Y114.678 E.0563
G1 X133.998 Y116.111 E.06564
G1 X132.787 Y116.992 E.04695
G1 X131.223 Y117.873 E.0563
G1 X129.276 Y118.644 E.06564
G1 X127.532 Y119.072 E.0563
G1 X126.047 Y119.26 E.04696
G1 X123.953 Y119.26 E.06563
G1 X122.468 Y119.072 E.04696
G1 X120.724 Y118.644 E.0563
G1 X118.777 Y117.873 E.06564
G1 X117.465 Y117.152 E.04695
G1 X116.002 Y116.111 E.0563
G1 X114.475 Y114.678 E.06564
G1 X113.345 Y113.283 E.0563
G1 X112.399 Y111.757 E.0563
G1 X111.762 Y110.402 E.04696
G1 X111.189 Y108.7 E.0563
G1 X110.797 Y106.644 E.06564
G1 X110.703 Y105.149 E.04696
G1 X110.797 Y103.356 E.0563
G1 X111.189 Y101.3 E.06564
G1 X111.762 Y99.598 E.0563
G1 X112.399 Y98.243 E.04696
G1 X113.345 Y96.717 E.0563
G1 X113.601 Y96.401 E.01274
M204 S1000
; printing object cubo_mounting_plate_m25.stl id:0 copy 0
;WIPE_START
G1 F8640
G1 X114.475 Y95.322 E-.32078
G1 X116.002 Y93.889 E-.48338
G1 X116.512 Y93.517 E-.14584
;WIPE_END
G1 E-.05 F2100
G1 Z.4 F720
G1 X128.341 Y115.282 F10800
G1 Z.2 F720
G1 E1 F2100
M204 S800
;TYPE:Perimeter
;WIDTH:0.419999
G1 F1200
G1 X127.026 Y115.62 E.04257
G1 X125.679 Y115.79 E.04257
G1 X124.321 Y115.79 E.04257
G1 X122.974 Y115.62 E.04257
G1 X121.659 Y115.282 E.04257
G1 X120.397 Y114.782 E.04257
G1 X119.207 Y114.128 E.04257
G1 X118.109 Y113.33 E.04257
G1 X117.119 Y112.401 E.04257
G1 X116.253 Y111.355 E.04257
G1 X115.526 Y110.208 E.04257
G1 X114.948 Y108.98 E.04257
G1 X114.528 Y107.689 E.04257
G1 X114.274 Y106.355 E.04257
G1 X114.189 Y105 E.04257
G1 X114.274 Y103.645 E.04257
G1 X114.528 Y102.311 E.04257
G1 X114.948 Y101.02 E.04257
G1 X115.526 Y99.792 E.04257
G1 X116.253 Y98.645 E.04257
G1 X117.119 Y97.599 E.04257
G1 X118.109 Y96.67 E.04257
G1 X119.207 Y95.872 E.04257
G1 X120.397 Y95.218 E.04257
G1 X121.659 Y94.718 E.04257
G1 X122.974 Y94.38 E.04257
G1 X124.321 Y94.21 E.04257
G1 X125.679 Y94.21 E.04257
G1 X127.026 Y94.38 E.04257
G1 X128.341 Y94.718 E.04257
G1 X129.603 Y95.218 E.04257
G1 X130.793 Y95.872 E.04257
G1 X131.891 Y96.67 E.04257
G1 X132.881 Y97.599 E.04257
G1 X133.747 Y98.645 E.04257
G1 X134.474 Y99.792 E.04257
G1 X135.052 Y101.02 E.04257
M73 Q3 S10
G1 X135.472 Y102.311 E.04257
G1 X135.726 Y103.645 E.04257
G1 X135.811 Y105 E.04257
G1 X135.726 Y106.355 E.04257
G1 X135.472 Y107.689 E.04257
M73 P3 R10
G1 X135.052 Y108.98 E.04257
G1 X134.474 Y110.208 E.04257
G1 X133.747 Y111.355 E.04257
G1 X132.881 Y112.401 E.04257
G1 X131.891 Y113.33 E.04257
G1 X130.793 Y114.128 E.04257
G1 X129.603 Y114.782 E.04257
G1 X128.397 Y115.26 E.04069
M204 S1000
G1 X128.458 Y115.642 F10800
M204 S800
;TYPE:External perimeter
G1 F1200
G1 X127.097 Y115.991 E.04406
G1 X125.703 Y116.167 E.04406
G1 X124.297 Y116.167 E.04406
G1 X122.903 Y115.991 E.04406
G1 X121.542 Y115.642 E.04406
G1 X120.236 Y115.124 E.04406
G1 X119.005 Y114.447 E.04406
G1 X117.868 Y113.621 E.04406
G1 X116.843 Y112.66 E.04406
G1 X115.948 Y111.577 E.04406
G1 X115.195 Y110.39 E.04406
G1 X114.597 Y109.119 E.04406
G1 X114.162 Y107.783 E.04406
G1 X113.899 Y106.402 E.04406
G1 X113.811 Y105 E.04406
G1 X113.899 Y103.598 E.04406
G1 X114.162 Y102.217 E.04406
G1 X114.597 Y100.881 E.04406
G1 X115.195 Y99.61 E.04406
G1 X115.948 Y98.423 E.04406
G1 X116.843 Y97.34 E.04406
G1 X117.868 Y96.379 E.04406
G1 X119.005 Y95.553 E.04406
G1 X120.236 Y94.876 E.04406
G1 X121.542 Y94.358 E.04406
G1 X122.903 Y94.009 E.04406
G1 X124.297 Y93.833 E.04406
G1 X125.703 Y93.833 E.04406
G1 X127.097 Y94.009 E.04406
G1 X128.458 Y94.358 E.04406
G1 X129.764 Y94.876 E.04406
G1 X130.995 Y95.553 E.04406
G1 X132.132 Y96.379 E.04406
G1 X133.157 Y97.34 E.04406
G1 X134.052 Y98.423 E.04406
G1 X134.805 Y99.61 E.04406
G1 X135.403 Y100.881 E.04406
G1 X135.838 Y102.217 E.04406
G1 X136.101 Y103.598 E.04406
G1 X136.189 Y105 E.04406
G1 X136.101 Y106.402 E.04406
G1 X135.838 Y107.783 E.04406
G1 X135.403 Y109.119 E.04406
G1 X134.805 Y110.39 E.04406
G1 X134.052 Y111.577 E.04406
G1 X133.157 Y112.66 E.04406
G1 X132.132 Y113.621 E.04406
G1 X130.995 Y114.447 E.04406
G1 X129.764 Y115.124 E.04406
G1 X128.513 Y115.619 E.04218
M204 S1000
G1 X128.16 Y115.374 F10800
;WIPE_START
G1 F8640
G1 X127.097 Y115.991 E-.3382
G1 X125.703 Y116.167 E-.32445
G1 X124.458 Y116.167 E-.28735
;WIPE_END
G1 E-.05 F2100
G1 Z.4 F720
G1 X122.986 Y105.057 F10800
G1 Z.2 F720
G1 E1 F2100
M204 S800
;TYPE:Perimeter
G1 F1200
G1 X122.975 Y104.929 E.00402
G1 X123.056 Y104.428 E.01591
G1 X123.272 Y103.945 E.01661
G1 X123.632 Y103.511 E.01767
G1 X123.795 Y103.376 E.00665
G1 X124.276 Y103.112 E.0172
G1 X124.478 Y103.046 E.00665
G1 X125.022 Y102.978 E.0172
G1 X125.558 Y103.052 E.01696
G1 X126.206 Y103.376 E.02272
G1 X126.597 Y103.752 E.017
G1 X126.93 Y104.395 E.02271
G1 X127.025 Y104.929 E.01702
G1 X126.917 Y105.645 E.02271
G1 X126.839 Y105.842 E.00664
G1 X126.545 Y106.305 E.01719
G1 X126.4 Y106.459 E.00664
G1 X125.956 Y106.782 E.01721
G1 X125.765 Y106.872 E.00664
G1 X125.233 Y107.009 E.01721
G1 X125.022 Y107.022 E.00664
G1 X124.477 Y106.954 E.01721
G1 X124.276 Y106.888 E.00664
G1 X123.794 Y106.624 E.01723
G1 X123.404 Y106.248 E.01699
G1 X123.07 Y105.605 E.02271
G1 X123.021 Y105.435 E.00555
G1 X122.992 Y105.116 E.01003
M204 S1000
G1 X123.434 Y105.493 F10800
M204 S800
;TYPE:External perimeter
G1 F1200
G1 X123.395 Y105.388 E.00352
G1 X123.349 Y104.976 E.01298
G1 X123.406 Y104.567 E.01296
G1 X123.572 Y104.174 E.01338
G1 X123.922 Y103.751 E.0172
G1 X124.457 Y103.442 E.01938
G1 X125.069 Y103.352 E.01938
G1 X125.543 Y103.442 E.01511
G1 X126.024 Y103.707 E.01723
G1 X126.355 Y104.059 E.01514
G1 X126.589 Y104.556 E.01722
G1 X126.649 Y105.035 E.01516
G1 X126.546 Y105.574 E.0172
G1 X126.227 Y106.103 E.01936
G1 X125.735 Y106.477 E.01938
G1 X125.14 Y106.644 E.01938
G1 X124.525 Y106.58 E.01938
G1 X123.976 Y106.293 E.01941
G1 X123.645 Y105.941 E.01514
G1 X123.46 Y105.547 E.01366
M204 S1000
G1 X123.322 Y105.483 F10800
;WIPE_START
G1 F8640
G1 X123.395 Y105.388 E-.03973
G1 X123.349 Y104.976 E-.09559
G1 X123.406 Y104.567 E-.09543
G1 X123.572 Y104.174 E-.09855
G1 X123.922 Y103.751 E-.12669
G1 X124.457 Y103.442 E-.14276
G1 X125.069 Y103.352 E-.14276
G1 X125.543 Y103.442 E-.1113
G1 X125.911 Y103.645 E-.09719
;WIPE_END
G1 E-.05 F2100
G1 Z.4 F720
G1 X131.146 Y96.268 F10800
G1 Z.2 F720
M73 Q4 S10
G1 E1 F2100
M204 S800
;TYPE:Solid infill
;WIDTH:0.425478
G1 F1200
G1 X132.692 Y97.814 E.06955
G1 X133.517 Y98.812 E.04121
G1 X134.158 Y99.821 E.038
M73 P4 R10
G1 X130.212 Y95.875 E.1775
G1 X129.483 Y95.474 E.02647
G1 X129.131 Y95.335 E.01205
G1 X134.672 Y100.876 E.24927
G1 X134.789 Y101.124 E.00874
G1 X134.986 Y101.731 E.02028
G1 X128.238 Y94.983 E.30354
G1 X127.51 Y94.797 E.02391
G1 X135.221 Y102.507 E.34688
G1 X135.349 Y103.176 E.02165
G1 X126.811 Y94.638 E.38408
G1 X126.192 Y94.56 E.01985
G1 X135.454 Y103.822 E.41667
G1 X135.49 Y104.399 E.0184
G1 X125.584 Y94.493 E.44566
G1 X125.043 Y94.493 E.01721
G1 X135.527 Y104.977 E.47163
G1 X135.497 Y105.488 E.01631
G1 X124.502 Y94.493 E.49465
G1 X124.339 Y94.493 E.00517
G1 X124.003 Y94.535 E.01077
G1 X135.465 Y105.997 E.51564
G1 X135.445 Y106.319 E.01026
M73 Q5 S10
G1 X135.413 Y106.486 E.0054
G1 X123.523 Y94.596 E.5349
G1 X123.042 Y94.657 E.0154
M73 P5 R10
G1 X135.326 Y106.941 E.55261
G1 X135.24 Y107.395 E.01471
G1 X122.61 Y94.766 E.56815
G1 X122.18 Y94.876 E.01414
G1 X135.13 Y107.826 E.58256
G1 X134.997 Y108.234 E.01366
G1 X121.749 Y94.987 E.59596
G1 X121.361 Y95.14 E.01326
G1 X134.864 Y108.643 E.60744
G1 X134.789 Y108.876 E.00779
G1 X134.714 Y109.034 E.00556
G1 X120.974 Y95.293 E.61812
G1 X120.586 Y95.447 E.01326
M73 P6 R10
M73 Q6 S10
G1 X134.541 Y109.402 E.62777
G1 X134.368 Y109.769 E.01293
G1 X120.23 Y95.632 E.636
G1 X119.881 Y95.824 E.01267
G1 X134.188 Y110.131 E.64362
G1 X133.978 Y110.462 E.01247
G1 X119.532 Y96.016 E.64987
G1 X119.201 Y96.226 E.01247
G1 X125.827 Y102.852 E.29809
G1 X126.366 Y103.142 E.01945
G1 X126.548 Y103.287 E.00742
G1 X126.9 Y103.682 E.01684
G1 X127.125 Y104.15 E.01651
G1 X133.768 Y110.793 E.29884
G1 X133.558 Y111.124 E.01247
G1 X127.297 Y104.863 E.28166
G1 X127.313 Y104.999 E.00437
G1 X127.255 Y105.361 E.01168
G1 X133.32 Y111.427 E.27285
G1 X133.075 Y111.723 E.01222
G1 X127.161 Y105.808 E.26607
G1 X127.151 Y105.852 E.00142
M73 P7 R10
M73 Q7 S10
G1 X126.967 Y106.155 E.0113
G1 X132.83 Y112.019 E.26377
G1 X132.573 Y112.302 E.01218
G1 X126.759 Y106.489 E.26153
G1 X126.684 Y106.586 E.0039
G1 X126.474 Y106.745 E.00838
G1 X132.294 Y112.564 E.2618
G1 X132.015 Y112.826 E.01218
G1 X126.166 Y106.978 E.2631
G1 X125.982 Y107.094 E.00693
G1 X125.794 Y107.147 E.00621
G1 X131.736 Y113.088 E.2673
G1 X131.426 Y113.319 E.0123
G1 X125.371 Y107.264 E.27238
G1 X125.092 Y107.31 E.00898
G1 X124.842 Y107.276 E.00804
G1 X131.234 Y113.668 E.28754
M204 S1000
;WIPE_START
G1 F8640
G1 X128.324 Y110.759 E-.95
;WIPE_END
G1 E-.05 F2100
G1 Z.4 F720
G1 X125.331 Y102.896 F10800
G1 Z.2 F720
G1 E1 F2100
M204 S800
G1 F1200
G1 X118.888 Y96.453 E.28985
G1 X118.574 Y96.681 E.01232
G1 X124.635 Y102.742 E.27265
G1 X124.416 Y102.769 E.00702
G1 X124.193 Y102.841 E.00744
G1 X118.264 Y96.912 E.26673
G1 X117.985 Y97.174 E.01218
G1 X123.841 Y103.03 E.26345
G1 X123.636 Y103.141 E.00742
G1 X123.507 Y103.237 E.00512
G1 X117.706 Y97.436 E.26097
G1 X117.427 Y97.698 E.01218
G1 X123.256 Y103.526 E.2622
G1 X123.015 Y103.826 E.01224
M73 Q8 S10
G1 X117.17 Y97.981 E.26294
G1 X116.925 Y98.277 E.01222
M73 P8 R10
G1 X122.847 Y104.199 E.2664
G1 X122.759 Y104.426 E.00772
G1 X122.734 Y104.627 E.00647
G1 X116.68 Y98.573 E.27234
G1 X116.442 Y98.876 E.01226
G1 X122.896 Y105.331 E.29037
M204 S1000
;WIPE_START
G1 F8640
G1 X119.987 Y102.422 E-.95
;WIPE_END
G1 E-.05 F2100
G1 Z.4 F720
G1 X116.109 Y99.084 F10800
G1 Z.2 F720
G1 E1 F2100
M204 S800
G1 F1200
G1 X122.874 Y105.85 E.30435
G1 X123.1 Y106.318 E.01654
M73 P8 R9
G1 X123.487 Y106.748 E.01841
G1 X123.654 Y106.869 E.00655
G1 X124.159 Y107.134 E.01814
G1 X130.799 Y113.775 E.29872
G1 X130.468 Y113.984 E.01247
G1 X116.022 Y99.538 E.64987
G1 X115.812 Y99.869 E.01247
M73 Q8 S9
G1 X130.119 Y114.176 E.64362
G1 X129.77 Y114.368 E.01267
G1 X115.632 Y100.231 E.63599
G1 X115.459 Y100.599 E.01293
M73 Q9 S9
G1 X129.414 Y114.553 E.62777
G1 X129.026 Y114.707 E.01326
M73 P9 R9
G1 X115.286 Y100.966 E.61812
G1 X115.211 Y101.124 E.00555
G1 X115.136 Y101.357 E.00779
G1 X128.638 Y114.86 E.60744
G1 X128.251 Y115.013 E.01326
G1 X115.003 Y101.766 E.59596
G1 X114.87 Y102.174 E.01366
G1 X127.82 Y115.124 E.58256
G1 X127.39 Y115.234 E.01414
G1 X114.76 Y102.605 E.56815
G1 X114.674 Y103.059 E.01471
G1 X126.958 Y115.343 E.55261
G1 X126.477 Y115.404 E.0154
M73 Q10 S9
G1 X114.587 Y103.514 E.5349
M73 P10 R9
G1 X114.555 Y103.681 E.0054
G1 X114.535 Y104.003 E.01027
G1 X125.997 Y115.465 E.51564
G1 X125.661 Y115.507 E.01077
G1 X125.498 Y115.507 E.00518
G1 X114.503 Y104.512 E.49465
G1 X114.473 Y105.023 E.01631
G1 X124.957 Y115.507 E.47162
G1 X124.416 Y115.507 E.01721
G1 X114.51 Y105.601 E.44565
G1 X114.546 Y106.178 E.0184
G1 X123.808 Y115.44 E.41666
G1 X123.189 Y115.362 E.01985
G1 X114.651 Y106.824 E.38407
G1 X114.779 Y107.493 E.02165
G1 X122.489 Y115.203 E.34687
G1 X121.761 Y115.016 E.02391
G1 X115.014 Y108.269 E.30353
G1 X115.211 Y108.876 E.02028
M73 Q11 S9
G1 X115.328 Y109.124 E.00875
M73 P11 R9
G1 X120.869 Y114.665 E.24926
G1 X120.517 Y114.526 E.01204
G1 X119.788 Y114.125 E.02648
G1 X115.843 Y110.18 E.17748
G1 X116.483 Y111.188 E.03799
G1 X117.309 Y112.187 E.04124
G1 X118.854 Y113.732 E.0695
M204 S1000
; stop printing object cubo_mounting_plate_m25.stl id:0 copy 0
;LAYER_CHANGE
;Z:0.35
;HEIGHT:0.15
;BEFORE_LAYER_CHANGE
G92 E0.0
;0.35


;WIPE_START
G1 F8640
G1 X117.309 Y112.187 E-.5045
G1 X116.483 Y111.188 E-.29934
G1 X116.143 Y110.654 E-.14617
;WIPE_END
G1 E-.05 F2100
G1 Z.4 F720
;AFTER_LAYER_CHANGE
;0.35
M104 S250 ; set temperature
M140 S90 ; set bed temperature
G1 X112.622 Y112.83 F10800
G1 Z.35 F720
G1 E1 F2100
;TYPE:Skirt/Brim
;WIDTH:0.42
G1 F3000
G1 X112.058 Y111.918 E.02596
G1 X111.42 Y110.563 E.03622
G1 X110.83 Y108.817 E.04457
G1 X110.42 Y106.668 E.05291
G1 X110.326 Y105.173 E.03622
G1 X110.42 Y103.332 E.04457
G1 X110.83 Y101.183 E.05291
G1 X111.42 Y99.437 E.04457
G1 X112.058 Y98.082 E.03622
G1 X113.23 Y96.235 E.05291
G1 X114.422 Y94.829 E.04457
G1 X115.513 Y93.804 E.03622
G1 X117.283 Y92.518 E.05292
