; generated by PrusaSlicer 2.6.1+linux-x64-GTK3 on 2023-10-18 at 23:58:34 UTC

; 

; external perimeters extrusion width = 0.45mm
; perimeters extrusion width = 0.45mm
; infill extrusion width = 0.45mm
; solid infill extrusion width = 0.45mm
; top infill extrusion width = 0.40mm
; first layer extrusion width = 0.42mm

M73 P0 R62
M73 Q0 S62
M201 X1000 Y1000 Z200 E5000 ; sets maximum accelerations, mm/sec^2
M203 X200 Y200 Z12 E120 ; sets maximum feedrates, mm / sec
M204 S1250 T1250 ; sets acceleration (S) and retract acceleration (R), mm/sec^2
M205 X8.00 Y8.00 Z0.40 E4.50 ; sets the jerk limits, mm/sec
M205 S0 T0 ; sets the minimum extruding and travel feed rate, mm/sec
;TYPE:Custom
M862.3 P "MK3S" ; printer model check
M862.1 P0.4 ; nozzle diameter check
M115 U3.13.1 ; tell printer latest fw version
G90 ; use absolute coordinates
M83 ; extruder relative mode
M104 S240 ; set extruder temp
M140 S85 ; set bed temp
M190 S85 ; wait for bed temp
M109 S240 ; wait for extruder temp
G28 W ; home all without mesh bed level
G80 ; mesh bed leveling

G1 Z0.2 F720
G1 Y-3 F1000 ; go outside print area
G92 E0
G1 X60 E9 F1000 ; intro line
G1 X100 E12.5 F1000 ; intro line

G92 E0
M221 S95

; Don't change E values below. Excessive value can damage the printer.
M907 E430 ; set extruder motor current
G21 ; set units to millimeters
G90 ; use absolute coordinates
M83 ; use relative distances for extrusion
M900 K0.08 ; Filament gcode LA 1.5
M900 K45 ; Filament gcode LA 1.0

M107
;LAYER_CHANGE
;Z:0.2
;HEIGHT:0.2
;BEFORE_LAYER_CHANGE
G92 E0.0
;0.2


G1 E-1 F2100
M73 P0 R61
G1 Z.2 F720
;AFTER_LAYER_CHANGE
;0.2
G1 Z.4
G1 X76.819 Y80.134 F10800
G1 Z.2 F720
G1 E1 F2100
M204 S800
;TYPE:Skirt/Brim
;WIDTH:0.42
G1 F1200
G1 X78.5 Y79.438 E.05705
G1 X171.5 Y79.438 E2.91595
G1 X173.181 Y80.134 E.05705
G1 X173.616 Y80.569 E.01929
G1 X174.312 Y82.25 E.05705
G1 X174.312 Y127.75 E1.42662
G1 X173.616 Y129.431 E.05705
G1 X173.181 Y129.866 E.01929
G1 X171.5 Y130.562 E.05705
G1 X78.5 Y130.562 E2.91595
G1 X76.819 Y129.866 E.05705
G1 X76.384 Y129.431 E.01929
G1 X75.688 Y127.75 E.05705
G1 X75.688 Y82.25 E1.42662
G1 X76.384 Y80.569 E.05705
G1 X76.777 Y80.177 E.0174
M204 S1000
; printing object cubo_mounting_plate_vesa.stl id:0 copy 0
;WIPE_START
G1 F8640
G1 X78.5 Y79.438 E-.43289
G1 X80.956 Y79.438 E-.56711
;WIPE_END
G1 Z.4 F720
G1 X170.823 Y127.073 F10800
G1 Z.2 F720
G1 E1 F2100
M204 S800
;TYPE:Perimeter
;WIDTH:0.419999
G1 F1200
G1 X79.177 Y127.073 E2.87349
G1 X79.177 Y82.927 E1.38416
M73 Q0 S61
G1 X170.823 Y82.927 E2.87349
G1 X170.823 Y127.013 E1.38228
M204 S1000
G1 X171.2 Y127.45 F10800
M204 S800
;TYPE:External perimeter
G1 F1200
G1 X78.8 Y127.45 E2.89713
G1 X78.8 Y82.55 E1.40781
M73 P1 R61
M73 Q1 S61
G1 X171.2 Y82.55 E2.89713
G1 X171.2 Y127.39 E1.40592
M204 S1000
G1 X170.805 Y127.39 F10800
;WIPE_START
G1 F8640
G1 X166.869 Y127.393 E-1
;WIPE_END
G1 Z.4 F720
G1 X162.668 Y102.236 F10800
G1 Z.2 F720
G1 E1 F2100
M204 S800
;TYPE:Perimeter
G1 F1200
G1 X163.29 Y102.339 E.01977
G1 X163.927 Y102.619 E.02182
G1 X164.475 Y103.049 E.02184
G1 X164.898 Y103.601 E.0218
G1 X165.17 Y104.241 E.0218
G1 X165.275 Y104.929 E.02182
G1 X165.206 Y105.622 E.02184
G1 X164.966 Y106.275 E.02181
G1 X164.572 Y106.848 E.0218
G1 X164.047 Y107.305 E.02182
G1 X163.425 Y107.618 E.02183
G1 X162.745 Y107.765 E.02181
G1 X162.05 Y107.739 E.02181
G1 X161.383 Y107.541 E.02182
G1 X160.786 Y107.184 E.02181
G1 X160.296 Y106.689 E.02184
G1 X159.946 Y106.088 E.02181
G1 X159.756 Y105.418 E.02184
G1 X159.738 Y104.723 E.0218
G1 X159.75 Y104.607 E.00366
G1 X159.894 Y104.044 E.01822
G1 X160.213 Y103.426 E.02181
G1 X160.676 Y102.907 E.02181
G1 X161.254 Y102.519 E.02183
G1 X161.91 Y102.287 E.02182
G1 X162.609 Y102.227 E.022
M204 S1000
G1 X162.776 Y102.629 F10800
M204 S800
;TYPE:External perimeter
G1 F1200
G1 X163.22 Y102.709 E.01415
G1 X163.767 Y102.96 E.01887
G1 X164.234 Y103.339 E.01886
G1 X164.593 Y103.823 E.01889
G1 X164.82 Y104.38 E.01886
G1 X164.901 Y104.976 E.01886
G1 X164.832 Y105.574 E.01887
G1 X164.616 Y106.136 E.01888
G1 X164.266 Y106.626 E.01888
G1 X163.807 Y107.015 E.01886
G1 X163.264 Y107.276 E.01889
G1 X162.674 Y107.395 E.01887
G1 X162.073 Y107.363 E.01887
G1 X161.499 Y107.183 E.01886
G1 X160.988 Y106.865 E.01887
G1 X160.571 Y106.43 E.01889
G1 X160.276 Y105.906 E.01885
G1 X160.121 Y105.324 E.01888
G1 X160.119 Y104.684 E.02007
G1 X160.259 Y104.138 E.01767
G1 X160.544 Y103.608 E.01887
G1 X160.951 Y103.165 E.01886
G1 X161.456 Y102.837 E.01888
G1 X162.027 Y102.646 E.01888
G1 X162.627 Y102.602 E.01886
G1 X162.717 Y102.618 E.00287
M204 S1000
G1 X163.013 Y102.307 F10800
;WIPE_START
G1 F8640
G1 X163.22 Y102.709 E-.11803
G1 X163.767 Y102.96 E-.13897
G1 X164.234 Y103.339 E-.13887
G1 X164.593 Y103.823 E-.13914
G1 X164.82 Y104.38 E-.13888
G1 X164.901 Y104.976 E-.13888
G1 X164.832 Y105.574 E-.139
G1 X164.757 Y105.769 E-.04823
;WIPE_END
G1 Z.4 F720
G1 X85.739 Y107.136 F10800
G1 Z.2 F720
G1 E1 F2100
M204 S800
;TYPE:Perimeter
G1 F1200
G1 X85.296 Y106.689 E.01973
G1 X84.946 Y106.088 E.02181
G1 X84.756 Y105.418 E.02184
G1 X84.738 Y104.723 E.0218
G1 X84.894 Y104.044 E.02184
G1 X85.213 Y103.426 E.02181
G1 X85.676 Y102.907 E.02181
G1 X86.254 Y102.519 E.02183
G1 X86.91 Y102.287 E.02182
G1 X87.604 Y102.226 E.02184
G1 X88.29 Y102.339 E.0218
G1 X88.927 Y102.619 E.02182
G1 X89.475 Y103.049 E.02184
G1 X89.898 Y103.601 E.0218
G1 X90.17 Y104.241 E.0218
G1 X90.275 Y104.929 E.02182
G1 X90.206 Y105.622 E.02184
G1 X89.966 Y106.275 E.02181
G1 X89.572 Y106.848 E.0218
G1 X89.047 Y107.305 E.02182
G1 X88.425 Y107.618 E.02183
G1 X87.745 Y107.765 E.02181
G1 X87.05 Y107.739 E.02181
G1 X86.383 Y107.541 E.02182
G1 X85.781 Y107.179 E.02203
M204 S1000
G1 X85.715 Y106.581 F10800
M204 S800
;TYPE:External perimeter
G1 F1200
G1 X85.571 Y106.43 E.00654
G1 X85.276 Y105.906 E.01885
G1 X85.121 Y105.324 E.01888
G1 X85.115 Y104.723 E.01884
G1 X85.259 Y104.138 E.01889
G1 X85.544 Y103.608 E.01887
G1 X85.951 Y103.165 E.01886
G1 X86.456 Y102.837 E.01888
G1 X87.027 Y102.646 E.01888
G1 X87.627 Y102.602 E.01886
G1 X88.22 Y102.709 E.01889
G1 X88.767 Y102.96 E.01887
G1 X89.234 Y103.339 E.01886
G1 X89.593 Y103.823 E.01889
G1 X89.82 Y104.38 E.01886
G1 X89.901 Y104.976 E.01886
G1 X89.832 Y105.574 E.01887
G1 X89.616 Y106.136 E.01888
G1 X89.266 Y106.626 E.01888
G1 X88.807 Y107.015 E.01886
G1 X88.264 Y107.276 E.01889
G1 X87.674 Y107.395 E.01887
G1 X87.073 Y107.363 E.01887
G1 X86.499 Y107.183 E.01886
G1 X85.988 Y106.865 E.01887
G1 X85.757 Y106.624 E.01047
M204 S1000
G1 X85.516 Y106.64 F10800
;WIPE_START
G1 F8640
G1 X85.571 Y106.43 E-.06206
G1 X85.276 Y105.906 E-.13885
G1 X85.121 Y105.324 E-.13907
G1 X85.115 Y104.723 E-.13878
G1 X85.259 Y104.138 E-.13911
G1 X85.544 Y103.608 E-.13895
G1 X85.951 Y103.165 E-.13891
G1 X86.33 Y102.919 E-.10427
;WIPE_END
G1 Z.4 F720
G1 X170.653 Y83.861 F10800
G1 Z.2 F720
G1 E1 F2100
M204 S800
;TYPE:Solid infill
;WIDTH:0.420756
G1 F1200
G1 X170.059 Y83.266 E.02641
G1 X169.525 Y83.266 E.01678
G1 X170.484 Y84.225 E.04261
G1 X170.484 Y84.76 E.01681
G1 X168.99 Y83.266 E.06638
G1 X168.456 Y83.266 E.01678
G1 X170.484 Y85.294 E.09011
G1 X170.484 Y85.828 E.01678
G1 X167.922 Y83.266 E.11383
G1 X167.387 Y83.266 E.01681
G1 X170.484 Y86.363 E.1376
G1 X170.484 Y86.897 E.01678
G1 X166.853 Y83.266 E.16133
G1 X166.319 Y83.266 E.01678
G1 X170.484 Y87.431 E.18505
G1 X170.484 Y87.966 E.01681
G1 X165.784 Y83.266 E.20882
G1 X165.25 Y83.266 E.01678
G1 X170.484 Y88.5 E.23255
G1 X170.484 Y89.034 E.01678
G1 X164.716 Y83.266 E.25628
G1 X164.181 Y83.266 E.01681
G1 X170.484 Y89.569 E.28005
G1 X170.484 Y90.103 E.01678
G1 X163.647 Y83.266 E.30377
G1 X163.113 Y83.266 E.01678
G1 X170.484 Y90.637 E.3275
G1 X170.484 Y91.172 E.01681
G1 X162.578 Y83.266 E.35127
G1 X162.044 Y83.266 E.01678
G1 X170.484 Y91.706 E.37499
G1 X170.484 Y92.24 E.01678
G1 X161.51 Y83.266 E.39872
G1 X160.975 Y83.266 E.01681
G1 X170.484 Y92.775 E.42249
G1 X170.484 Y93.309 E.01678
G1 X160.441 Y83.266 E.44622
G1 X159.907 Y83.266 E.01678
G1 X170.484 Y93.843 E.46994
G1 X170.484 Y94.378 E.01681
M73 P1 R60
G1 X159.372 Y83.266 E.49371
G1 X158.838 Y83.266 E.01678
G1 X170.484 Y94.912 E.51744
G1 X170.484 Y95.446 E.01678
G1 X158.304 Y83.266 E.54116
G1 X157.769 Y83.266 E.01681
G1 X170.484 Y95.981 E.56494
G1 X170.484 Y96.515 E.01678
G1 X157.235 Y83.266 E.58866
G1 X156.701 Y83.266 E.01678
G1 X170.484 Y97.049 E.61239
G1 X170.484 Y97.584 E.01681
G1 X156.166 Y83.266 E.63616
G1 X155.632 Y83.266 E.01678
G1 X170.484 Y98.118 E.65988
G1 X170.484 Y98.652 E.01678
G1 X155.098 Y83.266 E.68361
G1 X154.563 Y83.266 E.01681
G1 X170.484 Y99.187 E.70738
G1 X170.484 Y99.721 E.01678
M73 P2 R60
M73 Q2 S61
G1 X154.029 Y83.266 E.73111
G1 X153.494 Y83.266 E.01681
G1 X170.484 Y100.256 E.75488
G1 X170.484 Y100.79 E.01678
G1 X152.96 Y83.266 E.7786
G1 X152.426 Y83.266 E.01678
G1 X170.484 Y101.324 E.80233
G1 X170.484 Y101.859 E.01681
G1 X151.891 Y83.266 E.8261
G1 X151.357 Y83.266 E.01678
G1 X170.484 Y102.393 E.84982
G1 X170.484 Y102.927 E.01678
G1 X150.823 Y83.266 E.87355
G1 X150.288 Y83.266 E.01681
M73 Q2 S60
G1 X170.484 Y103.462 E.89732
G1 X170.484 Y103.996 E.01678
G1 X149.754 Y83.266 E.92105
G1 X149.22 Y83.266 E.01678
G1 X170.484 Y104.53 E.94477
G1 X170.484 Y105.065 E.01681
G1 X148.685 Y83.266 E.96854
G1 X148.151 Y83.266 E.01678
G1 X170.484 Y105.599 E.99227
G1 X170.484 Y106.133 E.01678
G1 X147.617 Y83.266 E1.01599
G1 X147.082 Y83.266 E.01681
G1 X170.484 Y106.668 E1.03977
G1 X170.484 Y107.202 E.01678
G1 X146.548 Y83.266 E1.06349
G1 X146.014 Y83.266 E.01678
G1 X170.484 Y107.736 E1.08722
G1 X170.484 Y108.271 E.01681
G1 X145.479 Y83.266 E1.11099
G1 X144.945 Y83.266 E.01678
G1 X170.484 Y108.805 E1.13471
G1 X170.484 Y109.339 E.01678
G1 X165.551 Y104.406 E.21918
G1 X165.619 Y105.009 E.01906
G1 X170.484 Y109.874 E.21615
G1 X170.484 Y110.408 E.01678
G1 X165.562 Y105.487 E.21867
G1 X165.535 Y105.717 E.00728
G1 X165.46 Y105.919 E.00677
G1 X170.484 Y110.942 E.2232
G1 X170.484 Y111.477 E.01681
G1 X165.316 Y106.309 E.22962
G1 X165.279 Y106.407 E.00329
G1 X165.13 Y106.657 E.00914
G1 X170.484 Y112.011 E.23788
G1 X170.484 Y112.545 E.01678
G1 X164.905 Y106.967 E.24786
G1 X164.65 Y107.246 E.01187
G1 X170.484 Y113.08 E.25921
G1 X170.484 Y113.614 E.01678
G1 X164.355 Y107.485 E.27232
G1 X164.169 Y107.636 E.00753
G1 X164.036 Y107.7 E.00464
G1 X170.484 Y114.148 E.28649
G1 X170.484 Y114.683 E.01681
G1 X163.675 Y107.874 E.30253
G1 X163.561 Y107.928 E.00396
G1 X163.275 Y108.008 E.00933
G1 X170.484 Y115.217 E.3203
G1 X170.484 Y115.751 E.01678
G1 X162.82 Y108.087 E.34052
G1 X162.658 Y108.115 E.00517
G1 X162.289 Y108.091 E.01162
G1 X170.484 Y116.286 E.36411
G1 X170.484 Y116.82 E.01678
G1 X161.383 Y107.719 E.40436
M204 S1000
;WIPE_START
G1 F8640
G1 X164.445 Y110.781 E-1
;WIPE_END
G1 Z.4 F720
G1 X163.315 Y102.171 F10800
G1 Z.2 F720
G1 E1 F2100
M204 S800
G1 F1200
G1 X144.411 Y83.266 E.83994
G1 X143.876 Y83.266 E.01681
G1 X162.503 Y101.893 E.82761
G1 X162.003 Y101.928 E.01575
M73 P3 R60
M73 Q3 S60
G1 X143.342 Y83.266 E.82914
G1 X142.808 Y83.266 E.01678
G1 X161.582 Y102.041 E.83416
G1 X161.185 Y102.178 E.01319
G1 X142.273 Y83.266 E.84027
G1 X141.739 Y83.266 E.01678
G1 X160.848 Y102.375 E.84902
G1 X160.529 Y102.59 E.01209
G1 X141.205 Y83.266 E.85858
G1 X140.67 Y83.266 E.01681
G1 X160.261 Y102.857 E.87044
G1 X160.005 Y103.135 E.01187
G1 X140.136 Y83.266 E.88279
G1 X139.602 Y83.266 E.01678
G1 X159.807 Y103.471 E.89772
G1 X159.616 Y103.816 E.01239
G1 X139.067 Y83.266 E.91303
G1 X138.533 Y83.266 E.01678
M73 P3 R59
G1 X159.5 Y104.234 E.9316
G1 X159.408 Y104.581 E.01128
G1 X159.407 Y104.675 E.00295
G1 X137.999 Y83.266 E.95119
G1 X137.464 Y83.266 E.01681
G1 X159.399 Y105.202 E.97461
G1 X159.416 Y105.458 E.00806
G1 X159.517 Y105.854 E.01284
G1 X136.93 Y83.266 E1.00358
G1 X136.396 Y83.266 E.01678
G1 X170.484 Y117.354 E1.51455
G1 X170.484 Y117.889 E.01681
G1 X135.861 Y83.266 E1.53832
G1 X135.327 Y83.266 E.01678
G1 X170.484 Y118.423 E1.56205
G1 X170.484 Y118.957 E.01678
G1 X134.793 Y83.266 E1.58577
G1 X134.258 Y83.266 E.01681
G1 X170.484 Y119.492 E1.60954
G1 X170.484 Y120.026 E.01678
M73 Q3 S59
G1 X133.724 Y83.266 E1.63327
G1 X133.19 Y83.266 E.01678
G1 X170.484 Y120.56 E1.657
G1 X170.484 Y121.095 E.01681
M73 P4 R59
M73 Q4 S59
G1 X132.655 Y83.266 E1.68077
G1 X132.121 Y83.266 E.01678
G1 X170.484 Y121.629 E1.70449
G1 X170.484 Y122.163 E.01678
G1 X131.587 Y83.266 E1.72822
G1 X131.052 Y83.266 E.01681
G1 X170.484 Y122.698 E1.75199
G1 X170.484 Y123.232 E.01678
G1 X130.518 Y83.266 E1.77571
G1 X129.983 Y83.266 E.01681
G1 X170.484 Y123.767 E1.79948
G1 X170.484 Y124.301 E.01678
G1 X129.449 Y83.266 E1.82321
G1 X128.915 Y83.266 E.01678
G1 X170.484 Y124.835 E1.84694
G1 X170.484 Y125.37 E.01681
G1 X128.38 Y83.266 E1.87071
G1 X127.846 Y83.266 E.01678
G1 X170.484 Y125.904 E1.89443
G1 X170.484 Y126.438 E.01678
G1 X127.312 Y83.266 E1.91816
G1 X126.777 Y83.266 E.01681
G1 X170.245 Y126.734 E1.93131
G1 X169.71 Y126.734 E.01681
G1 X126.243 Y83.266 E1.93129
M73 P4 R58
G1 X125.709 Y83.266 E.01678
M73 P5 R58
M73 Q5 S59
G1 X169.176 Y126.734 E1.93129
G1 X168.642 Y126.734 E.01678
G1 X125.174 Y83.266 E1.93131
G1 X124.64 Y83.266 E.01678
G1 X168.107 Y126.734 E1.93129
G1 X167.573 Y126.734 E.01678
G1 X124.106 Y83.266 E1.93129
G1 X123.571 Y83.266 E.01681
G1 X167.039 Y126.734 E1.93131
G1 X166.504 Y126.734 E.01681
G1 X123.037 Y83.266 E1.93129
G1 X122.503 Y83.266 E.01678
M73 Q5 S58
G1 X165.97 Y126.734 E1.93129
G1 X165.435 Y126.734 E.01681
G1 X121.968 Y83.266 E1.93129
G1 X121.434 Y83.266 E.01678
G1 X164.901 Y126.734 E1.93129
G1 X164.367 Y126.734 E.01678
G1 X120.9 Y83.266 E1.93129
G1 X120.365 Y83.266 E.01681
G1 X163.832 Y126.734 E1.93129
G1 X163.298 Y126.734 E.01678
G1 X119.831 Y83.266 E1.93129
G1 X119.297 Y83.266 E.01678
M73 P6 R58
M73 Q6 S58
G1 X162.764 Y126.734 E1.93129
G1 X162.229 Y126.734 E.01681
G1 X118.762 Y83.266 E1.93129
G1 X118.228 Y83.266 E.01678
G1 X161.695 Y126.734 E1.93129
G1 X161.161 Y126.734 E.01678
G1 X117.694 Y83.266 E1.93129
G1 X117.159 Y83.266 E.01681
G1 X160.626 Y126.734 E1.93129
G1 X160.092 Y126.734 E.01678
G1 X116.625 Y83.266 E1.93129
G1 X116.091 Y83.266 E.01678
G1 X159.558 Y126.734 E1.93129
G1 X159.023 Y126.734 E.01681
M73 P6 R57
G1 X115.556 Y83.266 E1.93129
G1 X115.022 Y83.266 E.01678
G1 X158.489 Y126.734 E1.93129
G1 X157.955 Y126.734 E.01678
G1 X114.488 Y83.266 E1.93129
G1 X113.953 Y83.266 E.01681
G1 X157.42 Y126.734 E1.93129
G1 X156.886 Y126.734 E.01678
G1 X113.419 Y83.266 E1.93129
G1 X112.885 Y83.266 E.01678
M73 P7 R57
M73 Q7 S58
G1 X156.352 Y126.734 E1.93129
G1 X155.817 Y126.734 E.01681
M73 Q7 S57
G1 X112.35 Y83.266 E1.93129
G1 X111.816 Y83.266 E.01678
G1 X155.283 Y126.734 E1.93129
G1 X154.749 Y126.734 E.01678
G1 X111.282 Y83.266 E1.93129
G1 X110.747 Y83.266 E.01681
G1 X154.214 Y126.734 E1.93129
G1 X153.68 Y126.734 E.01678
G1 X110.213 Y83.266 E1.93129
G1 X109.679 Y83.266 E.01678
G1 X153.146 Y126.734 E1.93129
G1 X152.611 Y126.734 E.01681
G1 X109.144 Y83.266 E1.93129
G1 X108.61 Y83.266 E.01678
G1 X152.077 Y126.734 E1.93129
G1 X151.543 Y126.734 E.01678
G1 X108.076 Y83.266 E1.93129
G1 X107.541 Y83.266 E.01681
G1 X151.008 Y126.734 E1.93129
G1 X150.474 Y126.734 E.01678
G1 X107.007 Y83.266 E1.93129
G1 X106.472 Y83.266 E.01681
M73 P8 R57
M73 Q8 S57
G1 X149.94 Y126.734 E1.93131
G1 X149.405 Y126.734 E.01681
G1 X105.938 Y83.266 E1.93129
G1 X105.404 Y83.266 E.01678
M73 P8 R56
G1 X148.871 Y126.734 E1.93129
G1 X148.337 Y126.734 E.01678
G1 X104.869 Y83.266 E1.93131
G1 X104.335 Y83.266 E.01678
G1 X147.802 Y126.734 E1.93129
G1 X147.268 Y126.734 E.01678
G1 X103.801 Y83.266 E1.93129
G1 X103.266 Y83.266 E.01681
G1 X146.734 Y126.734 E1.93131
G1 X146.199 Y126.734 E.01681
G1 X102.732 Y83.266 E1.93129
G1 X102.198 Y83.266 E.01678
M73 Q8 S56
G1 X145.665 Y126.734 E1.93129
G1 X145.131 Y126.734 E.01678
G1 X101.663 Y83.266 E1.93131
G1 X101.129 Y83.266 E.01678
G1 X144.596 Y126.734 E1.93129
G1 X144.062 Y126.734 E.01678
G1 X100.595 Y83.266 E1.93129
G1 X100.06 Y83.266 E.01681
M73 P9 R56
M73 Q9 S56
G1 X143.528 Y126.734 E1.93131
G1 X142.993 Y126.734 E.01681
G1 X99.526 Y83.266 E1.93129
G1 X98.992 Y83.266 E.01678
G1 X142.459 Y126.734 E1.93129
G1 X141.924 Y126.734 E.01681
G1 X98.457 Y83.266 E1.93129
