; generated by PrusaSlicer 2.6.1+linux-x64-GTK3 on 2023-10-18 at 23:58:33 UTC

; 

; external perimeters extrusion width = 0.45mm
; perimeters extrusion width = 0.45mm
; infill extrusion width = 0.45mm
; solid infill extrusion width = 0.45mm
; top infill extrusion width = 0.40mm
; first layer extrusion width = 0.42mm

M73 P0 R10
M73 Q0 S10
M201 X1000 Y1000 Z200 E5000 ; sets maximum accelerations, mm/sec^2
M203 X200 Y200 Z12 E120 ; sets maximum feedrates, mm / sec
M204 S1250 T1250 ; sets acceleration (S) and retract acceleration (R), mm/sec^2
M205 X8.00 Y8.00 Z0.40 E4.50 ; sets the jerk limits, mm/sec
M205 S0 T0 ; sets the minimum extruding and travel feed rate, mm/sec
;TYPE:Custom
M862.3 P "MK3S" ; printer model check
M862.1 P0.4 ; nozzle diameter check
M115 U3.13.1 ; tell printer latest fw version
G90 ; use absolute coordinates
M83 ; extruder relative mode
M104 S240 ; set extruder temp
M140 S85 ; set bed temp
M190 S85 ; wait for bed temp
M109 S240 ; wait for extruder temp
G28 W ; home all without mesh bed level
G80 ; mesh bed leveling

G1 Z0.2 F720
G1 Y-3 F1000 ; go outside print area
G92 E0
G1 X60 E9 F1000 ; intro line
G1 X100 E12.5 F1000 ; intro line

G92 E0
M221 S95

; Don't change E values below. Excessive value can damage the printer.
M907 E430 ; set extruder motor current
G21 ; set units to millimeters
G90 ; use absolute coordinates
M83 ; use relative distances for extrusion
M900 K0.08 ; Filament gcode LA 1.5
M900 K45 ; Filament gcode LA 1.0

M107
;LAYER_CHANGE
;Z:0.2
;HEIGHT:0.2
;BEFORE_LAYER_CHANGE
G92 E0.0
;0.2


G1 E-1 F2100
G1 Z.2 F720
;AFTER_LAYER_CHANGE
;0.2
G1 Z.4
G1 X114.185 Y95.081 F10800
G1 Z.2 F720
M73 P1 R10
M73 Q1 S10
G1 E1 F2100
M204 S800
;TYPE:Skirt/Brim
;WIDTH:0.42
G1 F1200
G1 X115.513 Y93.804 E.05777
G1 X117.283 Y92.518 E.0686
G1 X118.909 Y91.649 E.05781
G1 X120.301 Y91.098 E.04694
G1 X122.42 Y90.554 E.06859
G1 X124.251 Y90.344 E.05779
G1 X126.094 Y90.366 E.05779
G1 X127.58 Y90.554 E.04696
G1 X129.37 Y90.991 E.05777
G1 X131.404 Y91.796 E.06859
G1 X132.717 Y92.518 E.04698
G1 X134.22 Y93.583 E.05776
G1 X135.815 Y95.081 E.06861
G1 X136.973 Y96.515 E.05779
G1 X137.942 Y98.082 E.05777
G1 X138.58 Y99.437 E.04696
G1 X139.17 Y101.183 E.05779
G1 X139.58 Y103.332 E.0686
G1 X139.674 Y104.827 E.04697
G1 X139.58 Y106.668 E.0578
G1 X139.17 Y108.817 E.0686
G1 X138.58 Y110.563 E.05779
G1 X137.942 Y111.918 E.04696
G1 X136.77 Y113.765 E.06859
G1 X135.815 Y114.919 E.04697
G1 X134.487 Y116.196 E.05777
G1 X132.717 Y117.482 E.0686
G1 X131.091 Y118.351 E.05781
G1 X129.699 Y118.902 E.04694
G1 X127.58 Y119.446 E.06859
G1 X125.749 Y119.656 E.05779
G1 X123.906 Y119.634 E.05779
G1 X122.42 Y119.446 E.04696
G1 X120.63 Y119.009 E.05777
G1 X118.596 Y118.204 E.06859
G1 X117.283 Y117.482 E.04698
G1 X115.78 Y116.417 E.05776
G1 X114.185 Y114.919 E.06861
G1 X113.027 Y113.485 E.05779
G1 X112.058 Y111.918 E.05777
G1 X111.42 Y110.563 E.04696
G1 X110.83 Y108.817 E.05779
G1 X110.42 Y106.668 E.0686
G1 X110.326 Y105.173 E.04697
G1 X110.42 Y103.332 E.0578
G1 X110.83 Y101.183 E.0686
G1 X111.42 Y99.437 E.05779
G1 X112.058 Y98.082 E.04696
G1 X113.23 Y96.235 E.06859
G1 X114.147 Y95.127 E.0451
M204 S1000
G1 X114.437 Y95.368 F10800
M204 S800
G1 F1200
G1 X115.771 Y94.079 E.05816
G1 X117.465 Y92.848 E.06566
G1 X119.047 Y92 E.05628
G1 X120.44 Y91.449 E.04697
G1 X122.468 Y90.928 E.06565
G1 X124.251 Y90.721 E.05628
G1 X126.047 Y90.74 E.05632
G1 X127.532 Y90.928 E.04693
G1 X129.276 Y91.356 E.0563
G1 X131.223 Y92.127 E.06566
G1 X132.535 Y92.848 E.04694
G1 X133.998 Y93.889 E.0563
G1 X135.525 Y95.322 E.06566
M73 Q2 S10
G1 X136.655 Y96.717 E.05629
G1 X137.601 Y98.243 E.05629
G1 X138.238 Y99.598 E.04695
M73 P2 R10
G1 X138.811 Y101.3 E.05631
G1 X139.203 Y103.356 E.06563
G1 X139.297 Y104.851 E.04697
G1 X139.203 Y106.644 E.0563
G1 X138.811 Y108.7 E.06563
G1 X138.238 Y110.402 E.05631
G1 X137.601 Y111.757 E.04695
G1 X136.479 Y113.525 E.06565
G1 X135.525 Y114.678 E.04692
G1 X134.229 Y115.921 E.0563
G1 X132.535 Y117.152 E.06566
G1 X130.953 Y118 E.05628
G1 X129.56 Y118.551 E.04697
G1 X127.532 Y119.072 E.06565
G1 X125.749 Y119.279 E.05628
G1 X123.953 Y119.26 E.05632
G1 X122.468 Y119.072 E.04693
G1 X120.724 Y118.644 E.0563
G1 X118.777 Y117.873 E.06566
G1 X117.465 Y117.152 E.04694
G1 X116.002 Y116.111 E.0563
G1 X114.475 Y114.678 E.06566
G1 X113.345 Y113.283 E.05629
G1 X112.399 Y111.757 E.05629
G1 X111.762 Y110.402 E.04695
G1 X111.189 Y108.7 E.05631
G1 X110.797 Y106.644 E.06563
G1 X110.703 Y105.149 E.04697
G1 X110.797 Y103.356 E.0563
G1 X111.189 Y101.3 E.06563
G1 X111.762 Y99.598 E.05631
G1 X112.399 Y98.243 E.04695
G1 X113.521 Y96.475 E.06565
G1 X114.399 Y95.414 E.04318
M204 S1000
; printing object cubo_mounting_plate_m4.stl id:0 copy 0
;WIPE_START
G1 F8640
G1 X115.771 Y94.079 E-.44202
G1 X117.465 Y92.848 E-.48352
G1 X117.749 Y92.696 E-.07446
;WIPE_END
G1 Z.4 F720
G1 X135.472 Y102.311 F10800
G1 Z.2 F720
G1 E1 F2100
M204 S800
;TYPE:Perimeter
;WIDTH:0.419999
G1 F1200
G1 X135.726 Y103.645 E.04258
G1 X135.796 Y104.748 E.03465
G1 X135.796 Y105.252 E.0158
G1 X135.726 Y106.355 E.03465
G1 X135.472 Y107.689 E.04258
G1 X135.052 Y108.98 E.04257
G1 X134.474 Y110.208 E.04255
G1 X133.747 Y111.355 E.04258
G1 X132.881 Y112.401 E.04258
G1 X131.891 Y113.33 E.04257
G1 X130.793 Y114.128 E.04256
G1 X129.603 Y114.782 E.04258
G1 X128.341 Y115.282 E.04256
G1 X127.026 Y115.62 E.04257
G1 X125.679 Y115.79 E.04257
G1 X124.321 Y115.79 E.04258
G1 X122.974 Y115.62 E.04257
G1 X121.659 Y115.282 E.04257
G1 X120.397 Y114.782 E.04256
G1 X119.207 Y114.128 E.04258
G1 X118.109 Y113.33 E.04256
G1 X117.119 Y112.401 E.04257
G1 X116.253 Y111.355 E.04258
G1 X115.526 Y110.208 E.04258
G1 X114.948 Y108.98 E.04255
G1 X114.528 Y107.689 E.04257
G1 X114.274 Y106.355 E.04258
G1 X114.189 Y105 E.04257
G1 X114.274 Y103.645 E.04257
G1 X114.528 Y102.311 E.04258
G1 X114.948 Y101.02 E.04257
G1 X115.526 Y99.792 E.04255
G1 X116.253 Y98.645 E.04258
G1 X117.119 Y97.599 E.04258
G1 X118.109 Y96.67 E.04257
G1 X119.207 Y95.872 E.04256
G1 X120.397 Y95.218 E.04258
G1 X121.659 Y94.718 E.04256
G1 X122.974 Y94.38 E.04257
G1 X124.321 Y94.21 E.04257
M73 Q3 S10
G1 X125.679 Y94.21 E.04258
G1 X127.026 Y94.38 E.04257
G1 X128.341 Y94.718 E.04257
G1 X129.603 Y95.218 E.04256
M73 P3 R10
G1 X130.793 Y95.872 E.04258
G1 X131.891 Y96.67 E.04256
G1 X132.881 Y97.599 E.04257
G1 X133.747 Y98.645 E.04258
G1 X134.474 Y99.792 E.04258
G1 X135.052 Y101.02 E.04255
G1 X135.453 Y102.254 E.04068
M204 S1000
G1 X135.838 Y102.217 F10800
M204 S800
;TYPE:External perimeter
G1 F1200
G1 X136.101 Y103.598 E.04408
G1 X136.172 Y104.724 E.03537
G1 X136.172 Y105.276 E.01731
G1 X136.101 Y106.402 E.03537
G1 X135.838 Y107.783 E.04408
G1 X135.403 Y109.119 E.04405
G1 X134.805 Y110.39 E.04404
G1 X134.052 Y111.577 E.04407
G1 X133.157 Y112.66 E.04405
G1 X132.132 Y113.621 E.04405
G1 X130.995 Y114.447 E.04406
G1 X129.764 Y115.124 E.04405
G1 X128.458 Y115.642 E.04405
G1 X127.097 Y115.991 E.04405
G1 X125.703 Y116.167 E.04405
G1 X124.297 Y116.167 E.04408
G1 X122.903 Y115.991 E.04405
G1 X121.542 Y115.642 E.04405
G1 X120.236 Y115.124 E.04405
G1 X119.005 Y114.447 E.04405
G1 X117.868 Y113.621 E.04406
G1 X116.843 Y112.66 E.04405
G1 X115.948 Y111.577 E.04405
G1 X115.195 Y110.39 E.04407
G1 X114.597 Y109.119 E.04404
G1 X114.162 Y107.783 E.04405
G1 X113.899 Y106.402 E.04408
G1 X113.811 Y105 E.04405
G1 X113.899 Y103.598 E.04405
G1 X114.162 Y102.217 E.04408
G1 X114.597 Y100.881 E.04405
G1 X115.195 Y99.61 E.04404
G1 X115.948 Y98.423 E.04407
G1 X116.843 Y97.34 E.04405
G1 X117.868 Y96.379 E.04405
G1 X119.005 Y95.553 E.04406
G1 X120.236 Y94.876 E.04405
G1 X121.542 Y94.358 E.04405
G1 X122.903 Y94.009 E.04405
G1 X124.297 Y93.833 E.04405
G1 X125.703 Y93.833 E.04408
G1 X127.097 Y94.009 E.04405
G1 X128.458 Y94.358 E.04405
G1 X129.764 Y94.876 E.04405
G1 X130.995 Y95.553 E.04405
G1 X132.132 Y96.379 E.04406
G1 X133.157 Y97.34 E.04405
G1 X134.052 Y98.423 E.04405
G1 X134.805 Y99.61 E.04407
G1 X135.403 Y100.881 E.04404
G1 X135.819 Y102.16 E.04217
M204 S1000
G1 X135.552 Y102.497 F10800
;WIPE_START
G1 F8640
G1 X136.101 Y103.598 E-.33836
G1 X136.172 Y104.724 E-.26051
G1 X136.172 Y105.276 E-.12746
G1 X136.101 Y106.402 E-.26051
G1 X136.09 Y106.458 E-.01316
;WIPE_END
G1 Z.4 F720
G1 X123.583 Y107.362 F10800
G1 Z.2 F720
G1 E1 F2100
M204 S800
;TYPE:Perimeter
G1 F1200
G1 X123.256 Y107.164 E.01199
G1 X122.796 Y106.689 E.02073
G1 X122.446 Y106.088 E.02181
G1 X122.256 Y105.418 E.02184
G1 X122.238 Y104.722 E.02183
G1 X122.394 Y104.044 E.02181
G1 X122.713 Y103.426 E.02181
G1 X123.176 Y102.907 E.02181
G1 X123.754 Y102.519 E.02183
G1 X124.41 Y102.287 E.02182
G1 X125.103 Y102.226 E.02181
G1 X125.79 Y102.339 E.02183
G1 X126.427 Y102.619 E.02182
G1 X126.997 Y103.074 E.02287
G1 X127.399 Y103.602 E.02081
G1 X127.67 Y104.241 E.02176
G1 X127.775 Y104.929 E.02182
G1 X127.706 Y105.622 E.02184
G1 X127.466 Y106.275 E.02181
G1 X127.072 Y106.848 E.0218
G1 X126.547 Y107.305 E.02182
G1 X125.925 Y107.618 E.02183
G1 X125.245 Y107.765 E.02181
G1 X124.55 Y107.739 E.02181
G1 X123.883 Y107.541 E.02182
G1 X123.634 Y107.392 E.0091
M204 S1000
G1 X123.768 Y107.039 F10800
M204 S800
;TYPE:External perimeter
G1 F1200
G1 X123.478 Y106.859 E.0107
G1 X123.071 Y106.43 E.01854
G1 X122.776 Y105.906 E.01885
G1 X122.621 Y105.324 E.01888
G1 X122.615 Y104.722 E.01888
G1 X122.759 Y104.138 E.01886
G1 X123.044 Y103.608 E.01887
G1 X123.451 Y103.165 E.01886
G1 X123.956 Y102.837 E.01888
G1 X124.527 Y102.646 E.01888
G1 X125.127 Y102.602 E.01886
G1 X125.72 Y102.709 E.01889
G1 X126.267 Y102.96 E.01887
G1 X126.754 Y103.362 E.0198
G1 X127.093 Y103.823 E.01794
G1 X127.32 Y104.38 E.01886
G1 X127.401 Y104.976 E.01886
G1 X127.332 Y105.574 E.01887
G1 X127.116 Y106.136 E.01888
G1 X126.767 Y106.626 E.01886
G1 X126.307 Y107.015 E.01889
G1 X125.764 Y107.276 E.01889
G1 X125.174 Y107.395 E.01887
G1 X124.573 Y107.363 E.01887
G1 X123.999 Y107.183 E.01886
G1 X123.819 Y107.071 E.00665
M204 S1000
M73 Q4 S10
G1 X123.476 Y107.218 F10800
;WIPE_START
G1 F8640
G1 X123.478 Y106.859 E-.09271
G1 X123.071 Y106.43 E-.13654
G1 X122.776 Y105.906 E-.13885
G1 X122.621 Y105.324 E-.13907
G1 X122.615 Y104.722 E-.13901
G1 X122.759 Y104.138 E-.13889
G1 X123.044 Y103.608 E-.13895
G1 X123.267 Y103.366 E-.07598
;WIPE_END
G1 Z.4 F720
G1 X131.114 Y96.314 F10800
G1 Z.2 F720
M73 P4 R10
G1 E1 F2100
M204 S800
;TYPE:Solid infill
;WIDTH:0.423454
G1 F1200
G1 X132.643 Y97.844 E.06844
G1 X133.471 Y98.845 E.0411
G1 X134.106 Y99.845 E.03748
G1 X130.187 Y95.926 E.17537
G1 X129.458 Y95.525 E.02633
G1 X129.11 Y95.387 E.01185
G1 X134.618 Y100.895 E.24647
G1 X134.736 Y101.145 E.00875
G1 X134.931 Y101.747 E.02002
G1 X128.223 Y95.038 E.30019
G1 X127.499 Y94.852 E.02365
G1 X135.166 Y102.519 E.34308
G1 X135.293 Y103.184 E.02142
G1 X126.802 Y94.694 E.37993
G1 X126.186 Y94.616 E.01965
G1 X135.398 Y103.827 E.4122
G1 X135.434 Y104.401 E.0182
G1 X125.582 Y94.549 E.44086
G1 X125.043 Y94.549 E.01705
G1 X135.47 Y104.976 E.46659
G1 X135.441 Y105.485 E.01613
G1 X124.505 Y94.549 E.48936
G1 X124.343 Y94.549 E.00513
G1 X124.009 Y94.591 E.01065
G1 X135.409 Y105.991 E.51013
G1 X135.389 Y106.312 E.01018
M73 P5 R10
M73 Q5 S10
G1 X135.357 Y106.478 E.00535
G1 X123.531 Y94.652 E.52919
G1 X123.054 Y94.712 E.01521
G1 X135.271 Y106.93 E.54671
G1 X135.185 Y107.382 E.01456
G1 X122.624 Y94.821 E.56208
G1 X122.196 Y94.93 E.01397
G1 X135.075 Y107.81 E.57633
G1 X134.943 Y108.216 E.01351
G1 X121.767 Y95.04 E.5896
G1 X121.381 Y95.193 E.01314
G1 X134.811 Y108.623 E.60096
G1 X134.736 Y108.855 E.00771
G1 X134.662 Y109.012 E.00549
G1 X120.996 Y95.345 E.61155
G1 X120.61 Y95.498 E.01314
M73 P6 R10
M73 Q6 S10
G1 X134.49 Y109.378 E.6211
G1 X134.318 Y109.743 E.01277
G1 X120.256 Y95.682 E.62922
G1 X119.909 Y95.873 E.01253
G1 X126.151 Y102.115 E.27932
G1 X126.673 Y102.366 E.01833
G1 X127.29 Y102.883 E.02547
G1 X127.734 Y103.496 E.02395
G1 X127.872 Y103.836 E.01161
G1 X134.139 Y110.103 E.28043
G1 X133.93 Y110.432 E.01233
G1 X128.07 Y104.572 E.26222
G1 X128.12 Y105.001 E.01367
G1 X128.102 Y105.142 E.0045
G1 X133.721 Y110.761 E.25144
G1 X133.512 Y111.091 E.01236
G1 X128.042 Y105.62 E.24479
G1 X128.022 Y105.775 E.00495
G1 X127.921 Y106.038 E.00891
G1 X133.275 Y111.392 E.23958
G1 X133.032 Y111.686 E.01207
G1 X127.77 Y106.424 E.23546
G1 X127.678 Y106.592 E.00606
G1 X127.559 Y106.752 E.00631
G1 X132.788 Y111.981 E.23399
G1 X132.532 Y112.263 E.01205
G1 X127.33 Y107.061 E.23278
G1 X127.274 Y107.136 E.00296
M73 Q7 S10
G1 X127.051 Y107.321 E.00917
G1 X132.255 Y112.524 E.23285
G1 X131.977 Y112.784 E.01204
M73 P7 R10
G1 X126.757 Y107.564 E.23358
G1 X126.672 Y107.634 E.00348
G1 X126.413 Y107.759 E.0091
G1 X131.7 Y113.045 E.23656
G1 X131.391 Y113.274 E.01217
G1 X126.049 Y107.933 E.23902
G1 X125.862 Y107.993 E.00621
G1 X125.614 Y108.036 E.00796
G1 X131.079 Y113.501 E.24455
G1 X130.767 Y113.727 E.01219
G1 X125.154 Y108.114 E.25117
G1 X124.578 Y108.076 E.01827
G1 X130.563 Y114.061 E.26782
M204 S1000
;WIPE_START
G1 F8640
G1 X127.501 Y110.999 E-1
;WIPE_END
G1 Z.4 F720
G1 X125.635 Y102.137 F10800
G1 Z.2 F720
G1 E1 F2100
M204 S800
G1 F1200
G1 X119.562 Y96.064 E.27175
G1 X119.232 Y96.273 E.01236
G1 X124.863 Y101.903 E.25195
G1 X124.371 Y101.949 E.01564
G1 X118.921 Y96.499 E.24388
G1 X118.609 Y96.726 E.01221
G1 X123.963 Y102.079 E.23956
G1 X123.717 Y102.157 E.00817
G1 X123.584 Y102.238 E.00493
G1 X118.3 Y96.955 E.23643
G1 X118.023 Y97.216 E.01204
G1 X123.249 Y102.442 E.23385
G1 X123.097 Y102.534 E.00562
G1 X122.936 Y102.667 E.00661
G1 X117.745 Y97.476 E.23229
G1 X117.468 Y97.737 E.01204
G1 X122.678 Y102.947 E.23314
G1 X122.475 Y103.167 E.00947
M73 Q8 S10
G1 X122.434 Y103.241 E.00268
G1 X117.212 Y98.019 E.23367
G1 X116.968 Y98.314 E.01211
M73 P8 R10
G1 X122.243 Y103.589 E.23605
G1 X122.099 Y103.851 E.00946
G1 X122.072 Y103.956 E.00343
G1 X116.725 Y98.608 E.23929
G1 X116.529 Y98.845 E.00973
G1 X116.488 Y98.909 E.0024
G1 X121.962 Y104.384 E.24497
G1 X121.905 Y104.608 E.00731
G1 X121.902 Y104.862 E.00804
G1 X116.279 Y99.239 E.25162
G1 X116.07 Y99.568 E.01233
G1 X122.136 Y105.634 E.27144
M204 S1000
;WIPE_START
G1 F8640
G1 X119.074 Y102.572 E-1
;WIPE_END
G1 Z.4 F720
G1 X115.738 Y99.774 F10800
G1 Z.2 F720
G1 E1 F2100
M204 S800
G1 F1200
G1 X122.096 Y106.133 E.28453
G1 X122.476 Y106.834 E.02523
M73 P8 R9
G1 X123.011 Y107.404 E.02474
G1 X123.58 Y107.772 E.02144
G1 X123.851 Y107.887 E.00931
G1 X130.091 Y114.127 E.27923
G1 X129.744 Y114.318 E.01253
G1 X115.682 Y100.257 E.62922
G1 X115.51 Y100.623 E.0128
G1 X129.39 Y114.502 E.62108
G1 X129.004 Y114.655 E.01314
M73 Q8 S9
G1 X115.338 Y100.988 E.61155
G1 X115.264 Y101.145 E.00549
M73 P9 R9
M73 Q9 S9
G1 X115.189 Y101.377 E.00771
G1 X128.618 Y114.807 E.60094
G1 X128.233 Y114.96 E.01311
G1 X115.057 Y101.784 E.5896
G1 X114.925 Y102.19 E.01351
G1 X127.804 Y115.07 E.57633
G1 X127.376 Y115.18 E.01398
G1 X114.815 Y102.619 E.56208
G1 X114.729 Y103.07 E.01453
G1 X126.946 Y115.288 E.54671
G1 X126.469 Y115.348 E.01521
G1 X114.643 Y103.522 E.52919
G1 X114.611 Y103.688 E.00535
G1 X114.591 Y104.009 E.01018
G1 X125.991 Y115.409 E.51013
G1 X125.657 Y115.451 E.01065
M73 P10 R9
M73 Q10 S9
G1 X125.495 Y115.451 E.00513
G1 X114.559 Y104.515 E.48936
G1 X114.53 Y105.024 E.01613
G1 X124.957 Y115.451 E.46659
G1 X124.418 Y115.451 E.01705
G1 X114.566 Y105.599 E.44086
G1 X114.602 Y106.173 E.0182
G1 X123.813 Y115.384 E.41217
G1 X123.197 Y115.306 E.01965
G1 X114.707 Y106.816 E.37991
G1 X114.834 Y107.481 E.02142
G1 X122.501 Y115.148 E.34308
G1 X121.777 Y114.962 E.02365
G1 X115.069 Y108.254 E.30017
G1 X115.264 Y108.855 E.01999
G1 X115.382 Y109.105 E.00875
G1 X120.889 Y114.612 E.24643
G1 X120.542 Y114.475 E.0118
G1 X119.813 Y114.074 E.02633
G1 X115.894 Y110.155 E.17537
G1 X116.529 Y111.155 E.03748
G1 X117.357 Y112.156 E.0411
G1 X118.886 Y113.686 E.06844
M204 S1000
; stop printing object cubo_mounting_plate_m4.stl id:0 copy 0
;LAYER_CHANGE
;Z:0.35
;HEIGHT:0.15
;BEFORE_LAYER_CHANGE
G92 E0.0
;0.35


;WIPE_START
G1 F8640
G1 X117.357 Y112.156 E-.49945
G1 X116.529 Y111.155 E-.29996
G1 X116.063 Y110.422 E-.20059
;WIPE_END
G1 Z.4 F720
;AFTER_LAYER_CHANGE
;0.35
M104 S250 ; set temperature
M140 S90 ; set bed temperature
G1 X112.496 Y112.627 F10800
G1 Z.35 F720
G1 E1 F2100
