; generated by PrusaSlicer 2.5.0+linux-x64-GTK3 on 2022-09-17 at 20:30:44 UTC

; 

; external perimeters extrusion width = 0.45mm
; perimeters extrusion width = 0.45mm
; infill extrusion width = 0.45mm
; solid infill extrusion width = 0.45mm
; top infill extrusion width = 0.40mm
; first layer extrusion width = 0.42mm

M73 P0 R11
M73 Q0 S11
M201 X1000 Y1000 Z200 E5000 ; sets maximum accelerations, mm/sec^2
M203 X200 Y200 Z12 E120 ; sets maximum feedrates, mm / sec
M204 P1250 R1250 T1250 ; sets acceleration (P, T) and retract acceleration (R), mm/sec^2
M205 X8.00 Y8.00 Z0.40 E4.50 ; sets the jerk limits, mm/sec
M205 S0 T0 ; sets the minimum extruding and travel feed rate, mm/sec
M107
;TYPE:Custom
M862.3 P "MK3S" ; printer model check
M862.1 P0.4 ; nozzle diameter check
M115 U3.11.0 ; tell printer latest fw version
G90 ; use absolute coordinates
M83 ; extruder relative mode
M104 S240 ; set extruder temp
M140 S85 ; set bed temp
M190 S85 ; wait for bed temp
M109 S240 ; wait for extruder temp
G28 W ; home all without mesh bed level
G80 ; mesh bed leveling

G1 Z0.2 F720
G1 Y-3 F1000 ; go outside print area
G92 E0
G1 X60 E9 F1000 ; intro line
G1 X100 E12.5 F1000 ; intro line

G92 E0
M221 S95

; Don't change E values below. Excessive value can damage the printer.
M907 E430 ; set extruder motor current
G21 ; set units to millimeters
G90 ; use absolute coordinates
M83 ; use relative distances for extrusion
M900 K0.08 ; Filament gcode LA 1.5
M900 K45 ; Filament gcode LA 1.0
M107
;LAYER_CHANGE
;Z:0.2
;HEIGHT:0.2
;BEFORE_LAYER_CHANGE
G92 E0.0
;0.2


G1 E-1 F2100
G1 Z.2 F720
;AFTER_LAYER_CHANGE
;0.2
G1 Z.4
G1 X113.375 Y96.064 F10800
G1 Z.2 F720
M73 P1 R11
M73 Q1 S11
G1 E1 F2100
M204 S800
;TYPE:Skirt/Brim
;WIDTH:0.42
G1 F1200
G1 X114.422 Y94.829 E.05075
G1 X115.513 Y93.804 E.04695
G1 X117.283 Y92.518 E.0686
G1 X118.909 Y91.649 E.05778
G1 X120.301 Y91.098 E.04696
G1 X122.42 Y90.554 E.0686
G1 X124.251 Y90.344 E.05778
G1 X126.094 Y90.366 E.05778
G1 X127.58 Y90.554 E.04696
G1 X129.37 Y90.991 E.05778
G1 X131.404 Y91.796 E.0686
G1 X132.717 Y92.518 E.04695
G1 X134.22 Y93.583 E.05778
G1 X135.815 Y95.081 E.0686
G1 X136.973 Y96.515 E.05778
G1 X137.942 Y98.082 E.05778
G1 X138.58 Y99.437 E.04696
G1 X139.17 Y101.183 E.05778
G1 X139.58 Y103.332 E.0686
G1 X139.674 Y104.827 E.04696
G1 X139.58 Y106.668 E.05778
G1 X139.17 Y108.817 E.0686
G1 X138.58 Y110.563 E.05778
G1 X137.942 Y111.918 E.04696
G1 X136.77 Y113.765 E.0686
G1 X135.578 Y115.171 E.05778
G1 X134.487 Y116.196 E.04695
G1 X132.717 Y117.482 E.0686
G1 X131.091 Y118.351 E.05778
G1 X129.699 Y118.902 E.04696
G1 X127.58 Y119.446 E.0686
G1 X125.749 Y119.656 E.05778
G1 X123.906 Y119.634 E.05778
G1 X122.42 Y119.446 E.04696
G1 X120.63 Y119.009 E.05778
G1 X118.596 Y118.204 E.0686
G1 X117.283 Y117.482 E.04695
G1 X115.78 Y116.417 E.05778
G1 X114.185 Y114.919 E.0686
G1 X113.027 Y113.485 E.05778
G1 X112.058 Y111.918 E.05778
G1 X111.42 Y110.563 E.04696
G1 X110.83 Y108.817 E.05778
G1 X110.42 Y106.668 E.0686
G1 X110.326 Y105.173 E.04696
G1 X110.42 Y103.332 E.05778
G1 X110.83 Y101.183 E.0686
G1 X111.42 Y99.437 E.05778
G1 X112.058 Y98.082 E.04696
G1 X113.23 Y96.235 E.0686
G1 X113.337 Y96.11 E.00515
M204 S1000
G1 X113.639 Y96.355 F10800
M204 S800
G1 F1200
G1 X114.475 Y95.322 E.04168
G1 X116.002 Y93.889 E.06564
G1 X117.213 Y93.008 E.04695
G1 X118.777 Y92.127 E.0563
G1 X120.724 Y91.356 E.06564
G1 X122.468 Y90.928 E.0563
G1 X123.953 Y90.74 E.04696
G1 X126.047 Y90.74 E.06563
G1 X127.532 Y90.928 E.04696
G1 X129.276 Y91.356 E.0563
G1 X131.223 Y92.127 E.06564
G1 X132.535 Y92.848 E.04695
G1 X133.998 Y93.889 E.0563
G1 X135.525 Y95.322 E.06564
G1 X136.655 Y96.717 E.0563
G1 X137.601 Y98.243 E.0563
G1 X138.238 Y99.598 E.04696
G1 X138.811 Y101.3 E.0563
G1 X139.203 Y103.356 E.06564
M73 Q2 S11
G1 X139.297 Y104.851 E.04696
G1 X139.203 Y106.644 E.0563
G1 X138.811 Y108.7 E.06564
G1 X138.238 Y110.402 E.0563
M73 P2 R11
G1 X137.601 Y111.757 E.04696
G1 X136.655 Y113.283 E.0563
G1 X135.525 Y114.678 E.0563
G1 X133.998 Y116.111 E.06564
G1 X132.787 Y116.992 E.04695
G1 X131.223 Y117.873 E.0563
G1 X129.276 Y118.644 E.06564
G1 X127.532 Y119.072 E.0563
G1 X126.047 Y119.26 E.04696
G1 X123.953 Y119.26 E.06563
G1 X122.468 Y119.072 E.04696
G1 X120.724 Y118.644 E.0563
G1 X118.777 Y117.873 E.06564
G1 X117.465 Y117.152 E.04695
G1 X116.002 Y116.111 E.0563
G1 X114.475 Y114.678 E.06564
G1 X113.345 Y113.283 E.0563
G1 X112.399 Y111.757 E.0563
G1 X111.762 Y110.402 E.04696
G1 X111.189 Y108.7 E.0563
G1 X110.797 Y106.644 E.06564
G1 X110.703 Y105.149 E.04696
G1 X110.797 Y103.356 E.0563
G1 X111.189 Y101.3 E.06564
G1 X111.762 Y99.598 E.0563
G1 X112.399 Y98.243 E.04696
G1 X113.345 Y96.717 E.0563
G1 X113.601 Y96.401 E.01274
M204 S1000
; printing object cubo_mounting_plate_m4.stl id:0 copy 0
;WIPE_START
G1 F8640
G1 X114.475 Y95.322 E-.32078
G1 X116.002 Y93.889 E-.48338
G1 X116.512 Y93.517 E-.14584
;WIPE_END
G1 E-.05 F2100
G1 Z.4 F720
G1 X128.341 Y115.282 F10800
G1 Z.2 F720
G1 E1 F2100
M204 S800
;TYPE:Perimeter
;WIDTH:0.419999
G1 F1200
G1 X127.026 Y115.62 E.04257
G1 X125.679 Y115.79 E.04257
G1 X124.321 Y115.79 E.04257
G1 X122.974 Y115.62 E.04257
G1 X121.659 Y115.282 E.04257
G1 X120.397 Y114.782 E.04257
G1 X119.207 Y114.128 E.04257
G1 X118.109 Y113.33 E.04257
G1 X117.119 Y112.401 E.04257
G1 X116.253 Y111.355 E.04257
G1 X115.526 Y110.208 E.04257
G1 X114.948 Y108.98 E.04257
G1 X114.528 Y107.689 E.04257
G1 X114.274 Y106.355 E.04257
G1 X114.189 Y105 E.04257
G1 X114.274 Y103.645 E.04257
G1 X114.528 Y102.311 E.04257
G1 X114.948 Y101.02 E.04257
G1 X115.526 Y99.792 E.04257
G1 X116.253 Y98.645 E.04257
G1 X117.119 Y97.599 E.04257
G1 X118.109 Y96.67 E.04257
G1 X119.207 Y95.872 E.04257
G1 X120.397 Y95.218 E.04257
G1 X121.659 Y94.718 E.04257
G1 X122.974 Y94.38 E.04257
G1 X124.321 Y94.21 E.04257
G1 X125.679 Y94.21 E.04257
G1 X127.026 Y94.38 E.04257
G1 X128.341 Y94.718 E.04257
G1 X129.603 Y95.218 E.04257
G1 X130.793 Y95.872 E.04257
G1 X131.891 Y96.67 E.04257
G1 X132.881 Y97.599 E.04257
G1 X133.747 Y98.645 E.04257
G1 X134.474 Y99.792 E.04257
G1 X135.052 Y101.02 E.04257
G1 X135.472 Y102.311 E.04257
G1 X135.726 Y103.645 E.04257
G1 X135.811 Y105 E.04257
G1 X135.726 Y106.355 E.04257
G1 X135.472 Y107.689 E.04257
G1 X135.052 Y108.98 E.04257
G1 X134.474 Y110.208 E.04257
G1 X133.747 Y111.355 E.04257
G1 X132.881 Y112.401 E.04257
G1 X131.891 Y113.33 E.04257
G1 X130.793 Y114.128 E.04257
G1 X129.603 Y114.782 E.04257
G1 X128.397 Y115.26 E.04069
M204 S1000
M73 Q3 S11
G1 X128.458 Y115.642 F10800
M204 S800
;TYPE:External perimeter
G1 F1200
G1 X127.097 Y115.991 E.04406
G1 X125.703 Y116.167 E.04406
G1 X124.297 Y116.167 E.04406
G1 X122.903 Y115.991 E.04406
G1 X121.542 Y115.642 E.04406
M73 P3 R11
G1 X120.236 Y115.124 E.04406
G1 X119.005 Y114.447 E.04406
G1 X117.868 Y113.621 E.04406
G1 X116.843 Y112.66 E.04406
G1 X115.948 Y111.577 E.04406
G1 X115.195 Y110.39 E.04406
G1 X114.597 Y109.119 E.04406
G1 X114.162 Y107.783 E.04406
G1 X113.899 Y106.402 E.04406
G1 X113.811 Y105 E.04406
G1 X113.899 Y103.598 E.04406
G1 X114.162 Y102.217 E.04406
G1 X114.597 Y100.881 E.04406
G1 X115.195 Y99.61 E.04406
G1 X115.948 Y98.423 E.04406
G1 X116.843 Y97.34 E.04406
G1 X117.868 Y96.379 E.04406
G1 X119.005 Y95.553 E.04406
G1 X120.236 Y94.876 E.04406
G1 X121.542 Y94.358 E.04406
G1 X122.903 Y94.009 E.04406
G1 X124.297 Y93.833 E.04406
G1 X125.703 Y93.833 E.04406
G1 X127.097 Y94.009 E.04406
G1 X128.458 Y94.358 E.04406
G1 X129.764 Y94.876 E.04406
G1 X130.995 Y95.553 E.04406
G1 X132.132 Y96.379 E.04406
G1 X133.157 Y97.34 E.04406
G1 X134.052 Y98.423 E.04406
G1 X134.805 Y99.61 E.04406
G1 X135.403 Y100.881 E.04406
G1 X135.838 Y102.217 E.04406
G1 X136.101 Y103.598 E.04406
G1 X136.189 Y105 E.04406
G1 X136.101 Y106.402 E.04406
G1 X135.838 Y107.783 E.04406
G1 X135.403 Y109.119 E.04406
G1 X134.805 Y110.39 E.04406
G1 X134.052 Y111.577 E.04406
G1 X133.157 Y112.66 E.04406
G1 X132.132 Y113.621 E.04406
G1 X130.995 Y114.447 E.04406
G1 X129.764 Y115.124 E.04406
G1 X128.513 Y115.619 E.04218
M204 S1000
G1 X128.16 Y115.374 F10800
;WIPE_START
G1 F8640
G1 X127.097 Y115.991 E-.3382
G1 X125.703 Y116.167 E-.32445
G1 X124.458 Y116.167 E-.28735
;WIPE_END
G1 E-.05 F2100
G1 Z.4 F720
G1 X123.826 Y107.507 F10800
G1 Z.2 F720
M73 P3 R10
G1 E1 F2100
M204 S800
;TYPE:Perimeter
G1 F1200
G1 X123.286 Y107.183 E.01975
G1 X122.796 Y106.689 E.02182
G1 X122.446 Y106.088 E.02182
G1 X122.256 Y105.418 E.02182
G1 X122.238 Y104.722 E.02182
G1 X122.394 Y104.044 E.02182
G1 X122.713 Y103.426 E.02182
G1 X123.176 Y102.907 E.02182
G1 X123.754 Y102.519 E.02182
G1 X124.41 Y102.287 E.02182
G1 X125.103 Y102.226 E.02182
G1 X125.79 Y102.339 E.02182
G1 X126.427 Y102.619 E.02182
G1 X126.997 Y103.074 E.02285
G1 X127.399 Y103.602 E.02083
G1 X127.67 Y104.241 E.02176
G1 X127.775 Y104.929 E.02182
G1 X127.706 Y105.622 E.02182
G1 X127.466 Y106.275 E.02182
G1 X127.072 Y106.848 E.02182
G1 X126.547 Y107.305 E.02182
G1 X125.925 Y107.618 E.02182
G1 X125.245 Y107.765 E.02182
G1 X124.55 Y107.739 E.02182
G1 X123.877 Y107.538 E.022
M204 S1000
G1 X124.213 Y107.25 F10800
M204 S800
;TYPE:External perimeter
G1 F1200
G1 X123.999 Y107.183 E.00705
G1 X123.488 Y106.865 E.01888
G1 X123.071 Y106.43 E.01887
G1 X122.776 Y105.906 E.01887
G1 X122.621 Y105.324 E.01887
G1 X122.615 Y104.722 E.01887
G1 X122.759 Y104.138 E.01887
G1 X123.044 Y103.608 E.01887
G1 X123.451 Y103.165 E.01887
G1 X123.956 Y102.837 E.01887
G1 X124.527 Y102.646 E.01887
G1 X125.127 Y102.602 E.01887
G1 X125.72 Y102.709 E.01887
G1 X126.267 Y102.96 E.01887
G1 X126.754 Y103.362 E.0198
G1 X127.093 Y103.823 E.01795
G1 X127.32 Y104.38 E.01885
G1 X127.401 Y104.976 E.01887
G1 X127.332 Y105.574 E.01887
G1 X127.116 Y106.136 E.01887
M73 Q3 S10
G1 X126.767 Y106.626 E.01887
G1 X126.307 Y107.015 E.01887
G1 X125.764 Y107.276 E.01887
G1 X125.174 Y107.395 E.01887
G1 X124.573 Y107.363 E.01887
G1 X124.271 Y107.268 E.00994
M204 S1000
G1 X124.056 Y107.41 F10800
;WIPE_START
G1 F8640
G1 X123.999 Y107.183 E-.06575
G1 X123.488 Y106.865 E-.13901
G1 X123.071 Y106.43 E-.13896
G1 X122.776 Y105.906 E-.13898
G1 X122.621 Y105.324 E-.13898
G1 X122.615 Y104.722 E-.13899
G1 X122.759 Y104.138 E-.13898
G1 X122.862 Y103.946 E-.05034
;WIPE_END
G1 E-.05 F2100
G1 Z.4 F720
G1 X131.146 Y96.268 F10800
G1 Z.2 F720
G1 E1 F2100
M204 S800
;TYPE:Solid infill
;WIDTH:0.425478
G1 F1200
G1 X132.692 Y97.814 E.06955
G1 X133.517 Y98.812 E.04121
G1 X134.157 Y99.821 E.038
G1 X130.212 Y95.875 E.1775
G1 X129.483 Y95.474 E.02647
G1 X129.131 Y95.335 E.01205
M73 Q4 S10
G1 X134.672 Y100.876 E.24927
G1 X134.789 Y101.124 E.00874
M73 P4 R10
G1 X134.986 Y101.731 E.02028
G1 X128.238 Y94.983 E.30354
G1 X127.51 Y94.797 E.02391
G1 X135.221 Y102.507 E.34688
G1 X135.349 Y103.176 E.02165
G1 X126.811 Y94.638 E.38408
G1 X126.192 Y94.56 E.01985
G1 X135.454 Y103.822 E.41667
G1 X135.49 Y104.399 E.0184
G1 X125.584 Y94.493 E.44566
G1 X125.043 Y94.493 E.01721
G1 X135.527 Y104.977 E.47163
G1 X135.497 Y105.488 E.01631
G1 X124.502 Y94.493 E.49465
G1 X124.339 Y94.493 E.00517
G1 X124.003 Y94.535 E.01077
G1 X135.465 Y105.997 E.51564
G1 X135.445 Y106.319 E.01026
G1 X135.413 Y106.486 E.0054
G1 X123.523 Y94.596 E.5349
G1 X123.042 Y94.657 E.0154
M73 Q5 S10
G1 X135.326 Y106.941 E.55261
G1 X135.24 Y107.395 E.01471
M73 P5 R10
G1 X122.61 Y94.766 E.56815
G1 X122.18 Y94.876 E.01414
G1 X135.13 Y107.826 E.58256
G1 X134.997 Y108.234 E.01366
G1 X121.749 Y94.987 E.59596
G1 X121.361 Y95.14 E.01326
G1 X134.864 Y108.643 E.60744
G1 X134.789 Y108.876 E.00779
G1 X134.714 Y109.034 E.00556
G1 X120.974 Y95.293 E.61812
G1 X120.586 Y95.447 E.01326
G1 X134.541 Y109.402 E.62777
G1 X134.368 Y109.769 E.01293
M73 Q6 S10
G1 X120.23 Y95.632 E.636
G1 X119.881 Y95.824 E.01267
M73 P6 R10
G1 X126.313 Y102.256 E.28935
G1 X126.642 Y102.414 E.01161
G1 X127.248 Y102.922 E.02515
G1 X127.684 Y103.524 E.02365
G1 X127.754 Y103.697 E.00593
G1 X134.188 Y110.131 E.28944
G1 X133.978 Y110.462 E.01247
G1 X128.003 Y104.486 E.2688
G1 X128.063 Y105 E.01646
G1 X128.053 Y105.078 E.00248
G1 X133.768 Y110.793 E.25709
G1 X133.558 Y111.124 E.01247
G1 X127.993 Y105.558 E.25037
G1 X127.967 Y105.761 E.00651
G1 X127.88 Y105.987 E.00768
G1 X133.32 Y111.427 E.24472
G1 X133.075 Y111.723 E.01222
G1 X127.73 Y106.377 E.24047
G1 X127.63 Y106.561 E.00665
G1 X127.52 Y106.709 E.00586
G1 X132.83 Y112.019 E.23887
G1 X132.573 Y112.302 E.01218
G1 X127.29 Y107.02 E.23765
G1 X127.233 Y107.097 E.00307
G1 X127.01 Y107.281 E.00917
G1 X132.294 Y112.564 E.23768
G1 X132.015 Y112.826 E.01218
G1 X126.714 Y107.526 E.23845
G1 X126.642 Y107.586 E.003
G1 X126.366 Y107.719 E.00973
G1 X131.736 Y113.088 E.24156
G1 X131.426 Y113.319 E.0123
G1 X125.996 Y107.89 E.24423
G1 X125.848 Y107.938 E.00496
G1 X125.554 Y107.989 E.00949
G1 X131.112 Y113.547 E.25004
G1 X130.799 Y113.775 E.01232
M73 P7 R10
M73 Q7 S10
G1 X125.079 Y108.054 E.25734
G1 X124.497 Y108.014 E.01854
G1 X130.593 Y114.109 E.27421
M204 S1000
;WIPE_START
G1 F8640
G1 X127.683 Y111.2 E-.95
;WIPE_END
G1 E-.05 F2100
G1 Z.4 F720
G1 X125.73 Y102.213 F10800
G1 Z.2 F720
G1 E1 F2100
M204 S800
G1 F1200
G1 X119.532 Y96.016 E.2788
G1 X119.201 Y96.226 E.01247
G1 X124.93 Y101.955 E.25773
G1 X124.426 Y101.991 E.01609
G1 X118.888 Y96.453 E.24913
G1 X118.574 Y96.681 E.01232
G1 X124.015 Y102.122 E.24476
G1 X123.74 Y102.209 E.00917
G1 X123.629 Y102.277 E.00414
G1 X118.264 Y96.912 E.24135
G1 X117.985 Y97.174 E.01218
G1 X123.293 Y102.481 E.23877
G1 X123.13 Y102.58 E.00606
G1 X122.977 Y102.707 E.00631
G1 X117.706 Y97.436 E.23712
G1 X117.427 Y97.698 E.01218
G1 X122.717 Y102.988 E.23798
G1 X122.522 Y103.2 E.00918
G1 X122.474 Y103.286 E.00312
G1 X117.17 Y97.981 E.23863
G1 X116.925 Y98.277 E.01222
G1 X122.282 Y103.635 E.24102
G1 X122.152 Y103.872 E.00862
G1 X122.116 Y104.01 E.00452
G1 X116.68 Y98.573 E.24457
G1 X116.483 Y98.812 E.00984
G1 X116.442 Y98.876 E.00243
G1 X122.006 Y104.441 E.25031
G1 X121.961 Y104.616 E.00575
G1 X121.958 Y104.934 E.01012
G1 X116.232 Y99.207 E.25761
G1 X116.022 Y99.538 E.01247
M73 Q8 S10
G1 X122.222 Y105.738 E.27892
M204 S1000
;WIPE_START
M73 P8 R10
G1 F8640
G1 X119.313 Y102.829 E-.95
;WIPE_END
G1 E-.05 F2100
G1 Z.4 F720
G1 X115.689 Y99.746 F10800
G1 Z.2 F720
G1 E1 F2100
M204 S800
G1 F1200
G1 X122.239 Y106.296 E.29466
G1 X122.522 Y106.801 E.0184
G1 X123.047 Y107.36 E.02439
G1 X123.607 Y107.723 E.02123
G1 X123.716 Y107.774 E.00383
G1 X130.119 Y114.176 E.28802
G1 X129.77 Y114.368 E.01267
G1 X115.632 Y100.231 E.63599
G1 X115.459 Y100.599 E.01293
G1 X129.414 Y114.553 E.62777
G1 X129.026 Y114.707 E.01326
G1 X115.286 Y100.966 E.61812
G1 X115.211 Y101.124 E.00555
G1 X115.136 Y101.357 E.00779
G1 X128.638 Y114.86 E.60744
G1 X128.251 Y115.013 E.01326
G1 X115.003 Y101.766 E.59596
G1 X114.87 Y102.174 E.01366
M73 P9 R10
M73 Q9 S10
G1 X127.82 Y115.124 E.58256
G1 X127.39 Y115.234 E.01414
G1 X114.76 Y102.605 E.56815
G1 X114.674 Y103.059 E.01471
G1 X126.958 Y115.343 E.55261
G1 X126.477 Y115.404 E.0154
G1 X114.587 Y103.514 E.5349
G1 X114.555 Y103.681 E.0054
G1 X114.535 Y104.003 E.01027
G1 X125.997 Y115.465 E.51564
G1 X125.661 Y115.507 E.01077
G1 X125.498 Y115.507 E.00518
G1 X114.503 Y104.512 E.49465
G1 X114.473 Y105.023 E.01631
G1 X124.957 Y115.507 E.47162
G1 X124.416 Y115.507 E.01721
G1 X114.51 Y105.601 E.44565
G1 X114.546 Y106.178 E.0184
M73 P10 R10
M73 Q10 S10
G1 X123.808 Y115.44 E.41666
G1 X123.189 Y115.362 E.01985
G1 X114.651 Y106.824 E.38407
G1 X114.779 Y107.493 E.02165
G1 X122.489 Y115.203 E.34687
G1 X121.761 Y115.016 E.02391
G1 X115.014 Y108.269 E.30353
G1 X115.211 Y108.876 E.02028
G1 X115.328 Y109.124 E.00875
G1 X120.869 Y114.665 E.24926
G1 X120.517 Y114.526 E.01204
G1 X119.788 Y114.125 E.02648
G1 X115.843 Y110.18 E.17748
G1 X116.483 Y111.188 E.03799
G1 X117.309 Y112.187 E.04124
G1 X118.854 Y113.732 E.0695
M204 S1000
; stop printing object cubo_mounting_plate_m4.stl id:0 copy 0
;LAYER_CHANGE
;Z:0.35
;HEIGHT:0.15
;BEFORE_LAYER_CHANGE
G92 E0.0
;0.35


;WIPE_START
G1 F8640
G1 X117.309 Y112.187 E-.5045
G1 X116.483 Y111.188 E-.29933
G1 X116.143 Y110.654 E-.14617
;WIPE_END
G1 E-.05 F2100
G1 Z.4 F720
;AFTER_LAYER_CHANGE
;0.35
M104 S250 ; set temperature
M140 S90 ; set bed temperature
G1 X112.622 Y112.83 F10800
G1 Z.35 F720
G1 E1 F2100
;TYPE:Skirt/Brim
;WIDTH:0.42
